!!!!SEGMENT: s-uu--vok-mus-i-hs-22-8a_forster-kaspar--laetentur-caeli.krn
!!!cenid: 16xx:1684
!!!COM: Förster, Kaspar
!!!COM-rismID: pe30006147
!!!CDT: ~1616-1673/02/02
!!!CNT: German
!!!OTL: Laetentur caeli
!!!PDT: 1667
!!!AGN:
!!!SMS-siglum: S-Uu
!!!SMS-shelfmark: Vok. mus. i hs. 22:8a
!!!SMS-shelfwork: W
!!!SMS-variant: Violone S-Uu Vok. mus. i hs. 22:8a: [vlne] [ex1]
!!!SMS-altvar: Basso Viola. S-Uu Vok. mus. i hs. 22:8a: Basso Viola. [ex.2]
!!!NIFC-rismSourceID: 190008723
!!!NIFC-rismChildID: 190008723
!!!NIFC-islandoraID: none
!!!URL-pdf-islandora:
!!!URL-scan: https://www2.musik.uu.se/duben/presentationSource1.php?Select_Dnr=839 @EN{Scan on Academica} @PL{Skany w zewnętrznej bibliotece cyfrowej}
!!!ONB-nifc: UWAGA: poszczególne partie dostępne po kliknięciu w „browse part”. Informacje nt stron tytułowych w opisie na stronie lub na RISM.
!!!AIN: 1 bass 2 soprn 1 viole 2 violn
!!!key: F
**kern	**fba	**kern	**kern	**kern	**kern	**text	**text	**kern	**text	**kern	**text
*part7	*part7	*part6	*part5	*part4	*part3	*part3	*part3	*part2	*part2	*part1	*part1
*staff7	*	*staff6	*staff5	*staff4	*staff3	*staff3	*staff3	*staff2	*staff2	*staff1	*staff1
*I"Continuo	*	*I"Violone	*I"Violino 2	*I"Violino I	*I"Basso	*	*	*I"Canto 2do	*	*I"Canto 1.	*
*I'cont	*	*I'V-ne	*I'Vl 2	*I'Vl 1	*I'B.	*	*	*I'C 2	*	*I'C 1	*
*	*	*Iviole	*Ivioln	*Ivioln	*Ibass	*	*	*Isoprn	*	*Isoprn	*
*	*	*ICstr	*ICstr	*ICstr	*ICvox	*	*	*ICvox	*	*ICvox	*
*IGcont	*	*	*	*	*	*	*	*	*	*	*
*clefF4	*	*clefFv4	*clefG2	*clefG2	*clefF4	*	*	*clefC1	*	*clefC1	*
*k[b-]	*	*k[b-]	*k[b-]	*k[b-]	*k[b-]	*	*	*k[b-]	*	*k[b-]	*
*F:	*	*F:	*F:	*F:	*F:	*	*	*F:	*	*F:	*
*M2/1	*	*M2/1	*M2/1	*M2/1	*M2/1	*	*	*M2/1	*	*M2/1	*
*met(C)	*	*met(C)	*met(C)	*met(C)	*met(C|)	*	*	*met(C)	*	*met(C)	*
=1-	=1-	=1-	=1-	=1-	=1-	=1-	=1-	=1-	=1-	=1-	=1-
*all\right	*	*all\right	*all\right	*all\right	*all\right	*	*	*all\right	*	*all\right	*
*2\right	*	*2\right	*2\right	*2\right	*2\right	*	*	*2\right	*	*2\right	*
!LO:TX:b:t=voce	!	!LO:TX:b:t=Laetentŭr	!LO:TX:b:t=Laetentur coeli	!LO:TX:a:t=6	!LO:TX:b:t=4.	!	!	!	!	!	!
!LO:TX:b:t=laetentŭr	!	!	!	!LO:TX:b:t=Laetentur Coeli	!	!	!	!	!	!	!
2F\	.	00r	00r	00r	00r	.	.	0r	.	4r	.
.	.	.	.	.	.	.	.	.	.	8r	.
.	.	.	.	.	.	.	.	.	.	8f/	Lae-
!LO:TX:t=P:problem:kreska pseudotaktowa	!	!	!	!	!	!	!	!	!	!	!
2E\	6	.	.	.	.	.	.	.	.	8cc\L	.
.	.	.	.	.	.	.	.	.	.	8cc\J	-ten-
.	.	.	.	.	.	.	.	.	.	8cc\L	.
.	.	.	.	.	.	.	.	.	.	16dd\L	.
!	!	!	!	!	!	!	!	!	!	!LO:TX:t=P:problem:kreska pseudotaktowa	!
.	.	.	.	.	.	.	.	.	.	16cc\JJ	.
4D\	6	.	.	.	.	.	.	.	.	8b-\	.
.	.	.	.	.	.	.	.	.	.	8b-\	.
4E\	.	.	.	.	.	.	.	.	.	8b-\	.
.	.	.	.	.	.	.	.	.	.	16cc\	.
.	.	.	.	.	.	.	.	.	.	16b-\	.
4F\	.	.	.	.	.	.	.	.	.	8a\	.
.	.	.	.	.	.	.	.	.	.	16g\	.
.	.	.	.	.	.	.	.	.	.	16a\	.
!LO:TX:t=P:problem:kreska pseudotaktowa	!	!	!	!	!	!	!	!	!	!	!
4BB-/	.	.	.	.	.	.	.	.	.	16b-\	.
.	.	.	.	.	.	.	.	.	.	16cc\	.
.	.	.	.	.	.	.	.	.	.	(16dd\	-tur
!	!	!	!	!	!	!	!	!	!	!LO:TX:t=P:problem:kreska pseudotaktowa	!
.	.	.	.	.	.	.	.	.	.	16ee\)	.
=2-	=2-	=2-	=2-	=2-	=2-	=2-	=2-	=2-	=2-	=2-	=2-
2AA/	.	.	.	.	.	.	.	4r	.	8ff\	coe-
.	.	.	.	.	.	.	.	.	.	8ff\	-li
.	.	.	.	.	.	.	.	8r	.	8cc\	et
.	.	.	.	.	.	.	.	8f/	Lae-	8cc\	e-
2AA/	.	.	.	.	.	.	.	8cc\	-ten-	8a/	-xul-
.	.	.	.	.	.	.	.	8cc\	.	8f/	.
.	.	.	.	.	.	.	.	8cc\L	.	16a\	-tet
.	.	.	.	.	.	.	.	.	.	(16b-\	ter-
.	.	.	.	.	.	.	.	16dd\L	.	16a\)	.
!	!	!	!	!	!	!	!	!LO:TX:t=P:problem:kreska pseudotaktowa	!	!LO:TX:t=P:problem:kreska pseudotaktowa	!
.	.	.	.	.	.	.	.	16cc\JJ	.	16g\	.
!	!	!	!	!	!	!	!	!	!	!LO:LB:g=original	!
4D\	.	.	.	.	.	.	.	8b-\L	.	8f/	.
.	.	.	.	.	.	.	.	8b-\J	.	8f/	-ra
4E\	.	.	.	.	.	.	.	8b-\L	.	4r	.
.	.	.	.	.	.	.	.	16cc\L	.	.	.
.	.	.	.	.	.	.	.	16b-\JJ	.	.	.
4F\	.	.	.	.	.	.	.	8a\L	.	8ff\	et
.	.	.	.	.	.	.	.	16g\L	.	8ff\	e-
.	.	.	.	.	.	.	.	16a\JJ	.	.	.
!LO:TX:t=P:problem:kreska pseudotaktowa	!	!	!	!	!	!	!	!	!	!	!
4BB-/	.	.	.	.	.	.	.	16b-\	.	8dd\	-xul-
.	.	.	.	.	.	.	.	16cc\	.	.	.
!	!	!	!	!	!	!	!	!	!	!LO:TX:t=P:problem:kreska pseudotaktowa	!
.	.	.	.	.	.	.	.	(16dd\	-tur	8b-\	-tet
!	!	!	!	!	!	!	!	!LO:TX:t=P:problem:kreska pseudotaktowa	!	!	!
.	.	.	.	.	.	.	.	16ee\)	.	.	.
=3-	=3-	=3-	=3-	=3-	=3-	=3-	=3-	=3-	=3-	=3-	=3-
2AA/	.	00r	0r	0r	4r	.	.	8ff\	coe-	8cc\	et
.	.	.	.	.	.	.	.	8ff\	-li	8cc\	e-
.	.	.	.	.	8r	.	.	8cc\	et	8a/	-xul-
.	.	.	.	.	8C/	Lae-	.	8cc\	e-	8f/	-tet
4FF/	.	.	.	.	8F\	-ten-	.	8a/	-xul-	4r	.
.	.	.	.	.	8F\	.	.	8f/	-tet	.	.
4F\	.	.	.	.	8F\L	.	.	8a\	et	8cc\	et
!	!	!	!	!	!	!	!	!	!	!LO:TX:t=P:problem:kreska pseudotaktowa	!
.	.	.	.	.	16G\L	.	.	8a\	ex-	8cc\	e-
!	!	!	!	!	!LO:TX:t=P:problem:kreska pseudotaktowa	!	!	!LO:LB:g=original	!	!	!
.	.	.	.	.	16F\JJ	.	.	.	.	.	.
2E\	6	.	.	.	8E\L	.	.	16cc\LL	-ul-	16ee\LL	-xul-
.	.	.	.	.	.	.	.	16b-\	.	16dd\	.
.	.	.	.	.	8E\J	.	.	16cc\	.	16ee\	.
.	.	.	.	.	.	.	.	16dd\JJ	.	16ff\JJ	.
.	.	.	.	.	8E\L	.	.	8cc\	.	8ee\	.
.	.	.	.	.	16F\L	.	.	8cc\	-tet	8cc\	-tet
.	.	.	.	.	16E\JJ	.	.	.	.	.	.
!LO:TX:t=P:problem:kreska pseudotaktowa	!	!	!	!	!	!	!	!	!	!LO:TX:t=P:problem:kreska pseudotaktowa	!
2D/	7:6	.	.	.	8D\L	.	.	16ff\LL	ter-	2dd\	ter-
.	.	.	.	.	.	.	.	16ee\	.	.	.
.	.	.	.	.	16D\L	.	.	16ff\	.	.	.
.	.	.	.	.	16E\JJ	.	.	16gg\JJ	.	.	.
!	!	!	!	!	!	!	!	!LO:TX:t=P:problem:kreska pseudotaktowa	!	!	!
.	.	.	.	.	16F\LL	.	.	4ff\	.	.	.
.	.	.	.	.	16G\JJ	.	.	.	.	.	.
.	.	.	.	.	(16A\LL	-tur	.	.	.	.	.
!	!	!	!	!	!LO:TX:t=P:problem:kreska pseudotaktowa	!	!	!	!	!	!
.	.	.	.	.	16B-\JJ)	.	.	.	.	.	.
=4-	=4-	=4-	=4-	=4-	=4-	=4-	=4-	=4-	=4-	=4-	=4-
4C/	.	.	1r	2r	8c\	cae-	.	4ee\	-ra	4ee\	-ra
.	.	.	.	.	8c\	-li	.	.	.	.	.
4F\	.	.	.	.	8F\	et	.	8a\	et	8cc\	et
.	.	.	.	.	8F\	ex-	.	8a\	ex-	8cc\	e-
4C/	.	.	.	4r	8E/	-ŭl-	.	8g/	-ul-	8ee\	-xul-
.	.	.	.	.	8C/	-tet	.	8e/	-tet	8cc\	-tet
*	*	*	*	*	*	*ij	*	*	*	*	*
!LO:TX:b:t=viol	!	!	!	!	!	!	!	!	!	!LO:TX:t=P:problem:kreska pseudotaktowa	!
4c\	.	.	.	8r	8c\	et	.	16e/LL	ter-	4g/	ter-
.	.	.	.	.	.	.	.	16f/	.	.	.
!	!	!	!	!LO:TX:t=P:problem:kreska pseudotaktowa	!LO:TX:t=P:problem:kreska pseudotaktowa	!	!	!	!	!	!
.	.	.	.	8cc\	8c\	e-	.	16e/	.	.	.
!	!	!	!	!	!	!	!	!LO:TX:t=P:problem:kreska pseudotaktowa	!	!	!
.	.	.	.	.	.	.	.	16d/JJ	.	.	.
4A\	6	.	2r	8ff\L	8A\	-xŭl-	.	4c/	.	2a\	-ra
.	.	.	.	8ff\J	8A\	-tet	.	.	.	.	.
*	*	*	*	*	*	*Xij	*	*	*	*	*
4F\	.	.	.	8ff\L	4F\	ter-	.	4c/	-ra	.	.
.	.	.	.	16gg\L	.	.	.	.	.	.	.
.	.	.	.	16ff\JJ	.	.	.	.	.	.	.
!LO:TX:t=P:problem:kreska pseudotaktowa	!	!	!	!	!	!	!	!	!	!	!
2C/	.	.	4r	8ee\L	2C/	-ra	.	2r	.	2r	.
.	.	.	.	8ee\J	.	.	.	.	.	.	.
.	.	.	8r	8ee\L	.	.	.	.	.	.	.
!	!	!	!LO:TX:t=P:problem:kreska pseudotaktowa	!	!	!	!	!	!	!	!
.	.	.	8cc\	16dd\L	.	.	.	.	.	.	.
!	!	!	!	!LO:TX:t=P:problem:kreska pseudotaktowa	!	!	!	!	!	!	!
.	.	.	.	16ee\JJ	.	.	.	.	.	.	.
!LO:LB:g=original	!	!	!	!	!LO:LB:g=original	!	!	!	!	!	!
=5-	=5-	=5-	=5-	=5-	=5-	=5-	=5-	=5-	=5-	=5-	=5-
!	!	!	!	!	!	!	!	!LO:TX:a:t=3	!	!LO:TX:a:t=2	!
4.AA/	.	4r	8ff\L	8cc\L	0r	.	.	0r	.	0r	.
.	.	.	8ff\J	16dd\L	.	.	.	.	.	.	.
.	.	.	.	16ee\JJ	.	.	.	.	.	.	.
.	.	8r	8ff\L	16ff\LL	.	.	.	.	.	.	.
.	.	.	.	16gg\	.	.	.	.	.	.	.
8FF/	.	8FFF/	16gg\L	16aa\	.	.	.	.	.	.	.
.	.	.	16ff\JJ	16bb-\JJ	.	.	.	.	.	.	.
4CC/	.	8CC/L	8ee\L	8ccc\L	.	.	.	.	.	.	.
.	.	8CC/	8ee\J	8ccc\J	.	.	.	.	.	.	.
4C/	.	8CC/	8ee\L	8r	.	.	.	.	.	.	.
!	!	!LO:TX:t=P:problem:kreska pseudotaktowa	!	!LO:TX:t=P:problem:kreska pseudotaktowa	!	!	!	!	!	!	!
.	.	8CC/J	16dd\L	8cc\	.	.	.	.	.	.	.
!	!	!	!LO:TX:t=P:problem:kreska pseudotaktowa	!	!	!	!	!	!	!	!
.	.	.	16ee\JJ	.	.	.	.	.	.	.	.
4.AA/	6	4AAA/	8cc\L	8ff\L	.	.	.	.	.	.	.
.	.	.	16dd\L	8ff\J	.	.	.	.	.	.	.
.	.	.	16ee\JJ	.	.	.	.	.	.	.	.
.	.	8AAA/L	16ff\LL	8ff\L	.	.	.	.	.	.	.
.	.	.	16gg\	.	.	.	.	.	.	.	.
8FF/	.	8FFF/J	16aa\	16gg\L	.	.	.	.	.	.	.
.	.	.	16bb-\JJ	16ff\JJ	.	.	.	.	.	.	.
4CC/	.	2CC/	8gg\L	8ee\L	.	.	.	.	.	.	.
.	.	.	8gg\J	8ee\J	.	.	.	.	.	.	.
!LO:TX:t=P:problem:kreska pseudotaktowa	!	!	!	!	!	!	!	!	!	!	!
4C/	.	.	8cc\L	8ee\L	.	.	.	.	.	.	.
!	!	!	!LO:TX:t=P:problem:kreska pseudotaktowa	!	!	!	!	!	!	!	!
.	.	.	8ee\J	16ff\L	.	.	.	.	.	.	.
!	!	!	!	!LO:TX:t=P:problem:kreska pseudotaktowa	!	!	!	!	!	!	!
.	.	.	.	16ee\JJ	.	.	.	.	.	.	.
=6-	=6-	=6-	=6-	=6-	=6-	=6-	=6-	=6-	=6-	=6-	=6-
2BB-/	6:5	4BBB-/	8gg\L	8dd\L	1r	.	.	1r	.	2r	.
.	.	.	8gg\	16b-\L	.	.	.	.	.	.	.
.	.	.	.	16cc\JJ	.	.	.	.	.	.	.
.	.	8BBB-/L	8ff\	16dd\LL	.	.	.	.	.	.	.
.	.	.	.	16ee\	.	.	.	.	.	.	.
.	.	8BBB-/J	8ff\J	16dd\	.	.	.	.	.	.	.
.	.	.	.	16ee\JJ	.	.	.	.	.	.	.
!LO:TX:b:t=voce	!	!	!	!LO:LB:g=original	!	!	!	!	!	!	!
4AA/	6	8FF\L	8cc\L	8ff\L	.	.	.	.	.	8cc\	et
.	.	8FF\J	8cc\J	8ff\J	.	.	.	.	.	8cc\	e-
!	!	!	!	!LO:TX:t=P:problem:kreska pseudotaktowa	!	!	!	!	!	!	!
4GG/	.	4r	4r	4r	.	.	.	.	.	8b-\	-xul-
.	.	.	.	.	.	.	.	.	.	8g\	-tet
!	!	!	!LO:TX:a:t=5	!LO:TX:a:t=3	!	!	!	!	!	!LO:LB:g=original	!
4FF/	.	0r	00r	0r	4r	.	.	2r	.	8a\	ter-
.	.	.	.	.	.	.	.	.	.	8a\	-ra
*	*	*	*	*	*	*	*	*	*	*	*ij
4F\	.	.	.	.	8F\	et	.	.	.	8a\	et
.	.	.	.	.	8F\	ex-	.	.	.	8a\	e-
8E\L	6	.	.	.	8E\	-ul-	.	4r	.	8g/L	-xul-
8C\J	.	.	.	.	8C/	-tet	.	.	.	8e/J	.
!LO:TX:t=P:problem:kreska pseudotaktowa	!	!	!	!	!	!	!	!	!	!LO:TX:t=P:problem:kreska pseudotaktowa	!
4E\	6	.	.	.	16E\	ter-	.	8cc\	et	4g/	-tet
*	*	*	*	*	*	*	*	*	*	*	*Xij
.	.	.	.	.	16F\	.	.	.	.	.	.
.	.	.	.	.	16D\	.	.	8cc\	ex-	.	.
!	!	!	!	!	!LO:TX:t=P:problem:kreska pseudotaktowa	!	!	!	!	!	!
.	.	.	.	.	16E\	.	.	.	.	.	.
!	!	!	!	!	!	!	!	!LO:LB:g=original	!	!	!
=7-	=7-	=7-	=7-	=7-	=7-	=7-	=7-	=7-	=7-	=7-	=7-
2F\	.	.	.	.	8F\	-ra	.	8a/	-ul-	4f/	et
.	.	.	.	.	8F\	.	.	8f/	-tet	.	.
.	.	.	.	.	4r	.	.	16a\LL	ter-	8f/	e-
.	.	.	.	.	.	.	.	16b-\	.	.	.
.	.	.	.	.	.	.	.	16a\	.	8f/	-xul-
.	.	.	.	.	.	.	.	16b-\JJ	.	.	.
2C/	.	.	.	.	4r	.	.	8cc\	.	8e/	-tet
.	.	.	.	.	.	.	.	8cc\	-re,	8c/	et
.	.	.	.	.	8c\	et	.	8e/	et	8g\	ex-
!	!	!	!	!	!	!	!	!LO:TX:t=P:problem:kreska pseudotaktowa	!	!LO:TX:t=P:problem:kreska pseudotaktowa	!
.	.	.	.	.	8c\	ex-	.	8e/	ex-	8g\	-ŭl-
8A\L	.	2r	.	1r	8A\	-ul-	.	(16f/	-ul-	(16a\	.
.	.	.	.	.	.	.	.	16g/)	.	16b-\)	.
8F\J	.	.	.	.	8F\	-tet	.	8a/	-tet	8cc\	-tet
4G\	4#r	.	.	.	(8G\	ter-	.	4d/	ter-	(8.cc\	ter-
.	.	.	.	.	8GG/)	.	.	.	.	.	.
.	.	.	.	.	.	.	.	.	.	16b-\)	.
!LO:TX:t=P:problem:kreska pseudotaktowa	!	!	!	!	!	!	!	!	!	!	!
2C/	.	4r	.	.	4C/	-ra	.	4e/	-ra	4cc\	-ra
.	.	8r	.	.	8C/	et	.	8e/L	et	8cc\	et
!	!	!LO:TX:t=P:problem:kreska pseudotaktowa	!	!	!LO:TX:t=P:problem:kreska pseudotaktowa	!	!	!LO:TX:t=P:problem:kreska pseudotaktowa	!	!LO:TX:t=P:problem:kreska pseudotaktowa	!
.	.	8CC/	.	.	8C/	ex-	.	8e/J	ex-	8cc\	e-
=8-	=8-	=8-	=8-	=8-	=8-	=8-	=8-	=8-	=8-	=8-	=8-
!LO:TX:b:t=viol	!	!	!	!	!	!	!	!	!	!	!
2F\	.	8FF\L	.	4r	4.F\	-ul-	.	8f/L	-ul-	8a/	-xŭl-
.	.	8FF\J	.	.	.	.	.	8c/J	-tet	8f/	-tet
.	.	8FF\L	.	8r	.	.	.	16f/LL	ter-	16a\LL	ter-
.	.	.	.	.	.	.	.	16e/	.	16g\	.
.	.	16GG\L	.	8f/	8F\	-tet	.	16f/	.	16a\	.
.	.	16FF\JJ	.	.	.	.	.	16g/JJ	.	16b-\JJ	.
!	!	!	!	!	!	!	!	!	!	!LO:LB:g=original	!
4.E\	6	8EE\L	.	8cc\L	4E\	ter-	.	8c/L	.	4g/	.
.	.	8EE\J	.	8cc\	.	.	.	8d/J	.	.	.
.	.	8EE\L	.	8cc\	4E\	-ra	.	4e/	-ra	4g/	-ra
16F\LL	.	16FF\L	.	16dd\L	.	.	.	.	.	.	.
!	!	!	!	!LO:TX:t=P:problem:kreska pseudotaktowa	!	!	!	!	!	!	!
16E\JJ	.	16EE\JJ	.	16cc\JJ	.	.	.	.	.	.	.
!	!	!LO:LB:g=original	!	!	!LO:LB:g=original	!	!	!LO:LB:g=original	!	!	!
!	!	!	!	!	!	!	!	!LO:TX:a:t=4	!	!	!
8D/L	6	8DD/L	1r	8b-/L	00r	.	.	00r	.	00r	.
8GG/J	.	16GGG/L	.	8b-/J	.	.	.	.	.	.	.
.	.	16AAA/JJ	.	.	.	.	.	.	.	.	.
!LO:LB:g=original	!	!	!	!	!	!	!	!	!	!	!
8BB-/L	.	16BBB-/LL	.	8b-\L	.	.	.	.	.	.	.
.	.	16CC/	.	.	.	.	.	.	.	.	.
8D/J	.	16DD/	.	16cc\L	.	.	.	.	.	.	.
.	.	16EE/JJ	.	16b-\JJ	.	.	.	.	.	.	.
2F\	.	8FF\L	.	8a/L	.	.	.	.	.	.	.
.	.	8FF\	.	16a/L	.	.	.	.	.	.	.
.	.	.	.	16b-/JJ	.	.	.	.	.	.	.
.	.	8r	.	16cc\LL	.	.	.	.	.	.	.
.	.	.	.	16dd\	.	.	.	.	.	.	.
!	!	!LO:TX:t=P:problem:kreska pseudotaktowa	!	!	!	!	!	!	!	!	!
.	.	8FF\J	.	16ee\	.	.	.	.	.	.	.
!	!	!	!	!LO:TX:t=P:problem:kreska pseudotaktowa	!	!	!	!	!	!	!
.	.	.	.	16ff\JJ	.	.	.	.	.	.	.
!	!	!	!LO:LB:g=original	!	!	!	!	!	!	!	!
=9-	=9-	=9-	=9-	=9-	=9-	=9-	=9-	=9-	=9-	=9-	=9-
2E\	6	8EE\L	4r	4gg\	.	.	.	.	.	.	.
.	.	8EE\	.	.	.	.	.	.	.	.	.
.	.	8EE\	8r	4g/	.	.	.	.	.	.	.
.	.	16FF\L	8cc\	.	.	.	.	.	.	.	.
.	.	16EE\JJ	.	.	.	.	.	.	.	.	.
!LO:TX:t=P:problem:kreska pseudotaktowa	!	!	!	!	!	!	!	!	!	!	!
2D/	6:7	8DD\L	8ff\L	2r	.	.	.	.	.	.	.
.	.	16DD\L	8ff\	.	.	.	.	.	.	.	.
.	.	16EE\JJ	.	.	.	.	.	.	.	.	.
.	.	16FF\LL	8ff\	.	.	.	.	.	.	.	.
.	.	16GG\	.	.	.	.	.	.	.	.	.
.	.	16AA\	16gg\L	.	.	.	.	.	.	.	.
!	!	!LO:TX:t=P:problem:kreska pseudotaktowa	!LO:TX:t=P:problem:kreska pseudotaktowa	!	!	!	!	!	!	!	!
.	.	16BB-\JJ	16ff\JJ	.	.	.	.	.	.	.	.
2C/	.	4C\	8ee\L	4r	.	.	.	.	.	.	.
.	.	.	8ee\	.	.	.	.	.	.	.	.
.	.	4C\	8ee\	8r	.	.	.	.	.	.	.
.	.	.	16dd\L	8cc\	.	.	.	.	.	.	.
.	.	.	16ee\JJ	.	.	.	.	.	.	.	.
4.AA/	6	4r	8cc\L	8ff\L	.	.	.	.	.	.	.
.	.	.	16dd\L	8ff\	.	.	.	.	.	.	.
.	.	.	16ee\JJ	.	.	.	.	.	.	.	.
.	.	8r	16ff\LL	8ff\	.	.	.	.	.	.	.
.	.	.	16gg\	.	.	.	.	.	.	.	.
!	!	!LO:TX:t=P:problem:kreska pseudotaktowa	!	!	!	!	!	!	!	!	!
8FF/	.	8FFF/	16aa\	16gg\L	.	.	.	.	.	.	.
!	!	!	!LO:TX:t=P:problem:kreska pseudotaktowa	!LO:TX:t=P:problem:kreska pseudotaktowa	!	!	!	!	!	!	!
.	.	.	16bb-\JJ	16ff\JJ	.	.	.	.	.	.	.
!	!	!	!	!LO:LB:g=original	!	!	!	!	!	!	!
=10-	=10-	=10-	=10-	=10-	=10-	=10-	=10-	=10-	=10-	=10-	=10-
4CC/	.	8CC/L	8gg\L	8ee\L	.	.	.	.	.	.	.
.	.	8CC/	8gg\J	8ee\	.	.	.	.	.	.	.
4C/	.	8CC/	8cc\L	8ee\	.	.	.	.	.	.	.
.	.	16DD/L	8ee\J	16ff\L	.	.	.	.	.	.	.
.	.	16CC/JJ	.	16ee\JJ	.	.	.	.	.	.	.
!LO:TX:t=P:problem:kreska pseudotaktowa	!	!	!	!	!	!	!	!	!	!	!
2BB-/	.	8BBB-/L	8ff\L	8dd\L	.	.	.	.	.	.	.
.	.	8BBB-/	16dd\L	16b-\L	.	.	.	.	.	.	.
.	.	.	16ee\JJ	16cc\JJ	.	.	.	.	.	.	.
.	.	8BBB-/	16ff\LL	16dd\LL	.	.	.	.	.	.	.
.	.	.	16gg\	16ee\	.	.	.	.	.	.	.
.	.	16CC/L	16ff\	16dd\	.	.	.	.	.	.	.
!	!	!	!LO:TX:t=P:problem:kreska pseudotaktowa	!LO:TX:t=P:problem:kreska pseudotaktowa	!	!	!	!	!	!	!
.	.	16BBB-/JJ	16gg\JJ	16ee\JJ	.	.	.	.	.	.	.
!	!	!LO:LB:g=original	!	!	!	!	!	!	!	!	!
4AA/	6	8AAA/L	8aa\L	8ff\L	2r	.	.	2r	.	2r	.
.	.	16GGG/L	8aa\	8ff\	.	.	.	.	.	.	.
.	.	16AAA/JJ	.	.	.	.	.	.	.	.	.
4GG/	.	16BBB-/LL	8dd\	8gg\	.	.	.	.	.	.	.
.	.	16CC/	.	.	.	.	.	.	.	.	.
.	.	16DD/	8dd\J	8gg\J	.	.	.	.	.	.	.
.	.	16EE/JJ	.	.	.	.	.	.	.	.	.
!LO:TX:b:t=voce	!	!	!	!	!	!	!	!	!	!	!
4FF/	.	4FF\	4ff\	4cc\	4r	.	.	4r	.	8cc\	et
.	.	.	.	.	.	.	.	.	.	8cc\	e-
4F\	.	4FF\	4ff\	4cc\	8F\	et	.	8a\	et	8a\	-xŭl-
!	!	!	!	!	!	!	!	!LO:TX:t=P:problem:kreska pseudotaktowa	!	!LO:TX:t=P:problem:kreska pseudotaktowa	!
.	.	.	.	.	8F\	ex-	.	8a\	ex-	8f/	-tet
=11-	=11-	=11-	=11-	=11-	=11-	=11-	=11-	=11-	=11-	=11-	=11-
!	!	!	!LO:TX:a:t=1	!LO:TX:a:t=1	!	!	!	!	!	!	!
8E\L	.	1r	1r	1r	8E/	-ul-	.	8g/	-ul-	8cc\	ter-
8C\J	.	.	.	.	8C/	-tet	.	8e/	-tet	8cc\	-ra
*	*	*	*	*	*	*ij	*	*	*	*	*ij
4C/	.	.	.	.	8C/	et	.	8e/	et	8g\	et
.	.	.	.	.	8C/	ex-	.	8e/	ex-	8g\	e-
8AA/L	6	.	.	.	8AA/	-ul-	.	8f/	-ul-	8a\	-xŭl-
8FF/J	.	.	.	.	8FF/	-tet	.	8f/	-tet	8g\	-tet
*	*	*	*	*	*	*Xij	*	*	*	*	*
!LO:TX:t=P:problem:kreska pseudotaktowa	!	!	!	!	!	!	!	!	!	!LO:TX:t=P:problem:kreska pseudotaktowa	!
4C/	4:3	.	.	.	4C/	ter-	.	(8.f/	ter-	4g\	ter-
!	!	!	!	!	!	!	!	!LO:TX:t=P:problem:kreska pseudotaktowa	!	!	!
.	.	.	.	.	.	.	.	16e/)	.	.	.
!	!	!	!LO:LB:g=original	!	!	!	!	!	!	!	!
4FF/	.	4r	4r	4r	4FF/	-ra	.	4f/	-ra	4a\	-ra
4F\	.	8FF\L	8a/L	8cc\L	8F\	et	.	8a\	et	8cc\	et
.	.	8FF\J	8a/J	8cc\J	8F\	ex-	.	8a\	ex-	8cc\	e-
!LO:TX:b:t=Tutti.	!	!LO:TX:t=P:problem:mixed beam	!	!	!	!	!	!	!	!	!
8BB-/L	.	8BBB-/L	8b-\L	16dd\LL	8BB-/	-ŭl-	.	8g/	-ul-	8b-\	-xŭl-
.	.	.	.	16ee\J	.	.	.	.	.	.	.
8FF/J	.	8FF\J	8cc\J	8ff\J	8FF/	-tet	.	8f/	-tet	8a\	-tet
!	!	!	!	!	!	!	!	!	!	!LO:TX:t=P:problem:kreska pseudotaktowa	!
4C/	.	8CC/L	4cc\	8.gg\L	4C/	ter-	.	(8.f/	ter-	4g/	ter-
.	.	8CCC/J	.	.	.	.	.	.	.	.	.
!	!	!	!	!LO:TX:t=P:problem:kreska pseudotaktowa	!	!	!	!	!	!	!
.	.	.	.	16ff\Jk	.	.	.	16e/)	.	.	.
=12||-	=12||-	=12||-	=12||-	=12||-	=12||-	=12||-	=12||-	=12||-	=12||-	=12||-	=12||-
*M3/2	*	*M3/2	*M3/2	*M3/2	*M3/2	*	*	*M3/2	*	*M3/2	*
2.FF/	.	2.FFF/	2a/	2ff\	1FF	-ra	.	1f	-ra	1a	-ra
*	*	*	*	*	*	*	*	*	*	*	*Xij
.	.	.	4a/	4cc\	.	.	.	.	.	.	.
4GG/	.	4GGG/	4g/	4b-\	.	.	.	.	.	.	.
!	!	!LO:TX:t=P:problem:kreska pseudotaktowa	!	!	!	!	!	!	!	!	!
2AA/	.	2AAA/	4f/	4a/	2r	.	.	2r	.	2r	.
!	!	!	!LO:TX:t=P:problem:kreska pseudotaktowa	!LO:TX:t=P:problem:kreska pseudotaktowa	!	!	!	!	!	!LO:LB:g=original	!
.	.	.	4g/	4b-/	.	.	.	.	.	.	.
!LO:LB:g=original	!	!	!	!	!	!	!	!LO:LB:g=original	!	!	!
1C	.	1CC	1e	1g	2.C/	Con-	.	2.e/	con-	2.g/	Con-
.	.	.	.	.	4C/	-ci-	.	4e/	-ci-	4g/	-ci-
!	!	!	!	!	!	!	!	!	!	!LO:TX:t=P:problem:kreska pseudotaktowa	!
2C/	.	2CC/	2e/	2g/	2C/	-nat	.	2e/	-nat	2g/	-nat
!	!	!	!	!LO:LB:g=original	!	!	!	!	!	!	!
=13-	=13-	=13-	=13-	=13-	=13-	=13-	=13-	=13-	=13-	=13-	=13-
!LO:TX:t=P:problem:kreska pseudotaktowa	!	!	!LO:TX:a:t=11.	!LO:TX:a:t=16.	!	!	!	!	!	!	!
1.F	.	00.r	00.r	00.r	1F	or-	.	1f	or-	1a	or-
!	!	!	!	!	!	!	!	!LO:TX:t=P:problem:kreska pseudotaktowa	!	!LO:TX:t=P:problem:kreska pseudotaktowa	!
.	.	.	.	.	2F\	-bis	.	2f/	-bis	2a\	-bis
!	!	!	!	!	!LO:LB:g=original	!	!	!	!	!	!
1.FF	.	.	.	.	2r	.	.	2r	.	2r	.
.	.	.	.	.	2FF/	lau-	.	2f/	lau-	2a\	laŭ-
!	!	!	!	!	!	!	!	!LO:TX:t=P:problem:kreska pseudotaktowa	!	!LO:TX:t=P:problem:kreska pseudotaktowa	!
.	.	.	.	.	2FF/	-des	.	2f/	-des	2a\	-des
=14-	=14-	=14-	=14-	=14-	=14-	=14-	=14-	=14-	=14-	=14-	=14-
2.GG/	6	.	.	.	2.GG/	chriſ-	.	2.e/	Chri-	2.b-\	chri-
4AA/	.	.	.	.	4AA/	-to	.	4d/	-sto	4cc\	-ſto
!LO:TX:t=P:problem:kreska pseudotaktowa	!	!	!	!	!	!	!	!	!	!LO:TX:t=P:problem:kreska pseudotaktowa	!
2BB-/	.	.	.	.	2BB-/	re-	.	2d/	re-	2dd\	re-
2GG/	.	.	.	.	2GG/	-ſŭr-	.	2e/	-sur-	2dd\	-ſŭr-
*	*	*	*	*	*col	*	*	*col	*	*col	*
!	!	!	!	!	!	!	!	!	!	!LO:TX:t=P:problem:kreska pseudotaktowa	!
1AA	4#r	.	.	.	1AA	-gen-	.	1e	-gen-	1cc#X	-gent
*	*	*	*	*	*Xcol	*	*	*Xcol	*	*Xcol	*
=15-	=15-	=15-	=15-	=15-	=15-	=15-	=15-	=15-	=15-	=15-	=15-
!LO:TX:t=P:problem:kreska pseudotaktowa	!	!	!	!	!	!	!	!LO:TX:t=P:problem:kreska pseudotaktowa	!	!	!
1.D	#	00.r	00.r	00.r	1.D	-ti	.	1.f#X	-ti	2dd\	laŭ-
.	.	.	.	.	.	.	.	.	.	4dd\	.
.	.	.	.	.	.	.	.	.	.	4ee\	.
.	.	.	.	.	.	.	.	.	.	4ccny\	.
!	!	!	!	!	!	!	!	!	!	!LO:TX:t=P:problem:kreska pseudotaktowa	!
.	.	.	.	.	.	.	.	.	.	4dd\	.
!	!	!	!	!	!	!	!	!	!	!LO:N:acc=#	!
1.G	#	.	.	.	1.r	.	.	2r	.	1bn	.
.	.	.	.	.	.	.	.	4g\	lau-	.	.
.	.	.	.	.	.	.	.	4a\	.	.	.
.	.	.	.	.	.	.	.	4f#/	.	2b\	-des
!	!	!	!	!	!	!	!	!LO:TX:t=P:problem:kreska pseudotaktowa	!	!LO:LB:g=original	!
.	.	.	.	.	.	.	.	4g/	.	.	.
=16-	=16-	=16-	=16-	=16-	=16-	=16-	=16-	=16-	=16-	=16-	=16-
1C	.	.	.	.	2r	.	.	1e	.	1cc	chri-
.	.	.	.	.	4C/	laŭ-	.	.	.	.	.
.	.	.	.	.	4D/	.	.	.	.	.	.
!LO:TX:t=P:problem:kreska pseudotaktowa	!	!	!	!	!	!	!	!	!	!LO:TX:t=P:problem:kreska pseudotaktowa	!
2BB-/	.	.	.	.	4BB-/	.	.	2e/	-des	2cc\	-ſto
!	!	!	!	!	!LO:TX:t=P:problem:kreska pseudotaktowa	!	!	!	!	!	!
.	.	.	.	.	4C/	.	.	.	.	.	.
!	!	!	!	!	!	!	!	!LO:LB:g=original	!	!	!
1AA	6	.	.	.	2.AA/	.	.	1fny	chri-	2r	.
.	.	.	.	.	.	.	.	.	.	4cc\	lau-
.	.	.	.	.	4BB-/	.	.	.	.	4dd\	.
!	!	!	!	!	!	!	!	!LO:TX:t=P:problem:kreska pseudotaktowa	!	!	!
2GG/	.	.	.	.	4GG/	.	.	2f/	-sto	4b-y\	.
.	.	.	.	.	4AA/	.	.	.	.	4cc\	.
=17-	=17-	=17-	=17-	=17-	=17-	=17-	=17-	=17-	=17-	=17-	=17-
!LO:TX:t=P:problem:kreska pseudotaktowa	!	!	!	!	!	!	!	!	!	!	!
1.FF	.	0.r	0.r	0.r	1FF	.	.	2r	.	1a	.
.	.	.	.	.	.	.	.	2cc\	lau-	.	.
!	!	!	!	!	!LO:TX:t=P:problem:kreska pseudotaktowa	!	!	!LO:TX:t=P:problem:kreska pseudotaktowa	!	!LO:TX:t=P:problem:kreska pseudotaktowa	!
.	.	.	.	.	2FF/	-des	.	2cc\	-des	2a\	-des
2.BB-/	.	.	.	.	2.BB-/	chriſ-	.	2.b-\	chri-	2.dd\	chri-
4C/	.	.	.	.	4C/	-to	.	4a\	-sto	4ee\	-ſto
!	!	!	!	!	!LO:TX:t=P:problem:kreska pseudotaktowa	!	!	!	!	!	!
2D\	.	.	.	.	2D\	re-	.	(4g/	re-	2ff\	re-
!	!	!	!	!	!	!	!	!LO:TX:t=P:problem:kreska pseudotaktowa	!	!	!
.	.	.	.	.	.	.	.	4f/)	.	.	.
=18-	=18-	=18-	=18-	=18-	=18-	=18-	=18-	=18-	=18-	=18-	=18-
2BB-/	.	1.r	1.r	1.r	2BB-/	-ſur-	.	2f/	-sur-	2g/	-ſŭr-
!LO:TX:t=P:problem:kreska pseudotaktowa	!	!	!	!	!	!	!	!	!	!	!
*	*	*	*	*	*col	*	*	*col	*	*	*
!	!	!	!	!	!	!	!	!	!	!LO:TX:t=P:problem:kreska pseudotaktowa	!
1C	4:3	.	.	.	1C	-gen-	.	1e	-gen-	1g	-gen-
*	*	*	*	*	*Xcol	*	*	*Xcol	*	*	*
!	!	!	!	!	!LO:LB:g=original	!	!	!	!	!	!
2FF/	.	2r	2r	2r	2FF/	-di	.	2f/	-ti	1a	-ti
2F\	.	2r	2r	2r	4F\	lau-	.	(4a\	lau-	.	.
.	.	.	.	.	4G\	.	.	4b-\	.	.	.
!	!	!LO:TX:t=P:problem:kreska pseudotaktowa	!LO:TX:t=P:problem:kreska pseudotaktowa	!LO:TX:t=P:problem:kreska pseudotaktowa	!	!	!	!	!	!LO:TX:t=P:problem:kreska pseudotaktowa	!
2E\	.	2EE\	2g/	2cc\	4E\	.	.	4g\	.	2r	.
!	!	!	!	!	!	!	!	!LO:TX:t=P:problem:kreska pseudotaktowa	!	!	!
.	.	.	.	.	4F\	.	.	4a\)	.	.	.
!LO:LB:g=original	!	!LO:LB:g=original	!	!	!	!	!	!	!	!	!
=19-	=19-	=19-	=19-	=19-	=19-	=19-	=19-	=19-	=19-	=19-	=19-
1D	.	1DD	2a/	4dd\	2.D/	.	.	1f	.	2r	.
.	.	.	.	4ee\	.	.	.	.	.	.	.
.	.	.	2f/	2dd\	.	.	.	.	.	4ff\	laŭ-
.	.	.	.	.	4E\	.	.	.	.	4gg\	.
!LO:TX:t=P:problem:kreska pseudotaktowa	!	!LO:TX:t=P:problem:kreska pseudotaktowa	!LO:TX:t=P:problem:kreska pseudotaktowa	!LO:TX:t=P:problem:kreska pseudotaktowa	!	!	!	!	!	!	!
2C/	.	2CC/	2cc\	2ee\	4C/	.	.	2f/	-des	4ee\	.
!	!	!	!	!	!	!	!	!	!	!LO:TX:t=P:problem:kreska pseudotaktowa	!
.	.	.	.	.	4D/	.	.	.	.	4ff\	.
1.BB-	6:5	1BBB-	1dd	1ff	1BB-	.	.	2r	.	4dd\	.
.	.	.	.	.	.	.	.	.	.	4cc\	.
.	.	.	.	.	.	.	.	4g\	lau-	4b-\	.
.	.	.	.	.	.	.	.	4a\	.	4cc\	.
!	!	!LO:TX:t=P:problem:kreska pseudotaktowa	!LO:TX:t=P:problem:kreska pseudotaktowa	!LO:TX:t=P:problem:kreska pseudotaktowa	!	!	!	!	!	!	!
.	.	2BBB-/	2dd\	2ff\	2BB-/	-des	.	4f/	.	4a\	.
!	!	!	!	!	!	!	!	!LO:TX:t=P:problem:kreska pseudotaktowa	!	!	!
.	.	.	.	.	.	.	.	4g/	.	4b-\	.
!	!	!	!	!	!	!	!	!LO:LB:g=original	!	!LO:LB:g=original	!
=20-	=20-	=20-	=20-	=20-	=20-	=20-	=20-	=20-	=20-	=20-	=20-
1C	.	1CC	4cc\	4ee\	1C	laŭ-	.	1e	.	1g	.
.	.	.	4dd\	4ff\	.	.	.	.	.	.	.
.	.	.	4cc\	4dd\	.	.	.	.	.	.	.
.	.	.	4dd\	4ee\	.	.	.	.	.	.	.
!LO:TX:t=P:problem:kreska pseudotaktowa	!	!LO:TX:t=P:problem:kreska pseudotaktowa	!	!	!	!	!	!LO:TX:t=P:problem:kreska pseudotaktowa	!	!	!
2AA/	6	2AAA/	2f/	4cc\	2AA/	-des	.	2f/	-des	2cc\	-des
!	!	!	!	!LO:TX:t=P:problem:kreska pseudotaktowa	!	!	!	!	!	!	!
.	.	.	.	4dd\	.	.	.	.	.	.	.
!	!	!	!LO:LB:g=original	!	!	!	!	!	!	!	!
2.BB-/	.	4BBB-/	1ff	1b-	2.BB-/	chr(i)-	.	2.d/	chri-	2.b-\	chri-
.	.	4AAA/	.	.	.	.	.	.	.	.	.
.	.	4BBB-/	.	.	.	.	.	.	.	.	.
4C/	6	4CC/	.	.	4C/	-(st)o	.	4e/	-sto	4a\	-ſto
!	!	!LO:TX:t=P:problem:kreska pseudotaktowa	!LO:TX:t=P:problem:kreska pseudotaktowa	!LO:TX:t=P:problem:kreska pseudotaktowa	!LO:TX:t=P:problem:kreska pseudotaktowa	!	!	!	!	!LO:TX:t=P:problem:kreska pseudotaktowa	!
2D/	.	2DD/	2dd\	2ff\	2D/	re-	.	2f/	re-	2a\	re-
=21-	=21-	=21-	=21-	=21-	=21-	=21-	=21-	=21-	=21-	=21-	=21-
2BB-/	.	2BBB-/	2dd\	4bb-\	2BB-/	-ſŭr-	.	2f/	-sur-	2g/	-ſŭr-
.	.	.	.	4aa\	.	.	.	.	.	.	.
1C	4:3	2CC/	2g/	2.gg\	1C	-gen-	.	(2.f/	-gen-	1g	-gen-
.	.	2CCC/	2cc\	.	.	.	.	.	.	.	.
.	.	.	.	4ff\	.	.	.	4e/)	.	.	.
1.ryy	.	1.ryy	1.ryy	1ryy	2ryy	.	.	1.ryy	.	2ryy	.
.	.	.	.	.	1ryy	.	.	.	.	1ryy	.
.	.	.	.	2ryy	.	.	.	.	.	.	.
=22-	=22-	=22-	=22-	=22-	=22-	=22-	=22-	=22-	=22-	=22-	=22-
*M2/1	*	*M2/1	*M2/1	*M2/1	*M2/1	*	*	*M2/1	*	*M2/1	*
*met(C)	*	*met(C)	*met(C)	*met(C)	*met(C)	*	*	*met(C|)	*	*met(C)	*
!LO:TX:t=P:problem:kreska pseudotaktowa	!	!	!	!	!	!	!	!LO:TX:t=P:problem:kreska pseudotaktowa	!	!LO:TX:t=P:problem:kreska pseudotaktowa	!
1FF;	.	1FFF	1a	1ff;	1FF	-ti	.	1f	-ti	1a;	-ti
!LO:TX:b:t=Canto Solo.	!	!	!LO:TX:a:t=10	!LO:TX:a:t=9	!	!	!	!LO:TX:a:t=5	!	!	!
1F	.	00r	00r	00r	00r	.	.	00r	.	4r	.
.	.	.	.	.	.	.	.	.	.	4a\	Dum
.	.	.	.	.	.	.	.	.	.	8cc\	ſŭ-
.	.	.	.	.	.	.	.	.	.	16cc\	-as
.	.	.	.	.	.	.	.	.	.	16cc\	can-
.	.	.	.	.	.	.	.	.	.	8.cc\	-ta-
!	!	!	!	!	!	!	!	!	!	!LO:TX:t=P:problem:kreska pseudotaktowa	!
.	.	.	.	.	.	.	.	.	.	16b-\	-re
=23-	=23-	=23-	=23-	=23-	=23-	=23-	=23-	=23-	=23-	=23-	=23-
!LO:TX:t=P:problem:kreska pseudotaktowa	!	!	!	!	!	!	!	!	!	!	!
1BB-	.	.	.	.	.	.	.	.	.	8.dd\	glo-
.	.	.	.	.	.	.	.	.	.	16dd\	-ri-
.	.	.	.	.	.	.	.	.	.	4dd\	-as
.	.	.	.	.	.	.	.	.	.	4r	.
.	.	.	.	.	.	.	.	.	.	8r	.
.	.	.	.	.	.	.	.	.	.	8dd\	dum
!LO:N:acc=#	!	!	!	!	!	!	!	!	!	!LO:LB:g=original	!
2BBn/	6	.	.	.	.	.	.	.	.	8g/	ſŭ-
.	.	.	.	.	.	.	.	.	.	16g/	-as
.	.	.	.	.	.	.	.	.	.	16f/	nar-
.	.	.	.	.	.	.	.	.	.	8f/	-ra-
.	.	.	.	.	.	.	.	.	.	8e/	-re
2C/	.	.	.	.	.	.	.	.	.	4e/	laŭ-
.	.	.	.	.	.	.	.	.	.	8e/	-des
!	!	!	!	!	!	!	!	!	!	!LO:TX:t=P:problem:kreska pseudotaktowa	!
.	.	.	.	.	.	.	.	.	.	8g/	aſ-
=24-	=24-	=24-	=24-	=24-	=24-	=24-	=24-	=24-	=24-	=24-	=24-
2D/	#	.	.	.	.	.	.	.	.	4f#X/	-su-
.	.	.	.	.	.	.	.	.	.	4d/	-mit
!LO:TX:t=P:problem:kreska pseudotaktowa	!	!	!	!	!	!	!	!	!	!	!
2BB-/	.	.	.	.	.	.	.	.	.	8r	.
.	.	.	.	.	.	.	.	.	.	8b-\	a-
.	.	.	.	.	.	.	.	.	.	8a\	.
!	!	!	!	!	!	!	!	!	!	!LO:TX:t=P:problem:kreska pseudotaktowa	!
.	.	.	.	.	.	.	.	.	.	8g\	.
!	!	!	!	!	!LO:TX:b:t=6.	!	!	!	!	!	!
2AA/	6\	00r	00r	00r	0r	.	.	1r	.	8cc\	.
.	.	.	.	.	.	.	.	.	.	16b-\	.
.	.	.	.	.	.	.	.	.	.	16a\	.
.	.	.	.	.	.	.	.	.	.	8f#X/	.
.	.	.	.	.	.	.	.	.	.	16g/	.
.	.	.	.	.	.	.	.	.	.	16a/	.
4.GG/	.	.	.	.	.	.	.	.	.	4b-\	.
.	.	.	.	.	.	.	.	.	.	8g/L	-ni-
!	!	!	!	!	!	!	!	!	!	!LO:TX:t=P:problem:kreska pseudotaktowa	!
8AA/	.	.	.	.	.	.	.	.	.	8f#/J	-ma
!LO:LB:g=original	!	!	!	!	!	!	!	!	!	!LO:LB:g=original	!
=25-	=25-	=25-	=25-	=25-	=25-	=25-	=25-	=25-	=25-	=25-	=25-
4BB-/	.	.	.	.	.	.	.	2r	.	(2.d/	me-
4FF/	6	.	.	.	.	.	.	.	.	.	.
4GG/	5	.	.	.	.	.	.	4r	.	.	.
!LO:TX:t=P:problem:kreska pseudotaktowa	!	!	!	!	!	!	!	!	!	!LO:TX:t=P:problem:kreska pseudotaktowa	!
4AA/	#	.	.	.	.	.	.	8e/	ti-	4c#X/)	.
!	!	!	!	!	!	!	!	!LO:TX:t=P:problem:kreska pseudotaktowa	!	!	!
.	.	.	.	.	.	.	.	8e/	-met	.	.
4DD/	.	.	.	.	2r	.	.	4f/	cor	4d/	-a
4D/	.	.	.	.	.	.	.	4r	.	8fny/	pa-
.	.	.	.	.	.	.	.	.	.	8f/	-ret
!LO:TX:t=P:problem:kreska pseudotaktowa	!	!	!	!	!	!	!	!LO:TX:t=P:problem:kreska pseudotaktowa	!	!	!
!LO:N:acc=#	!	!	!	!	!	!	!	!	!	!	!
2BBn/	6	.	.	.	4r	.	.	2r	.	8g/	lin-
.	.	.	.	.	.	.	.	.	.	8g/	-gua
!	!	!	!	!	!LO:N:acc=#	!	!	!	!	!LO:TX:t=P:problem:kreska pseudotaktowa	!
.	.	.	.	.	8BBn/	vox	.	.	.	4r	.
.	.	.	.	.	8BB/	non	.	.	.	.	.
!	!	!	!	!	!LO:LB:g=original	!	!	!	!	!	!
=26-	=26-	=26-	=26-	=26-	=26-	=26-	=26-	=26-	=26-	=26-	=26-
2C/	-	.	.	.	8C/	au-	.	4r	.	4r	.
.	.	.	.	.	8C/	-det	.	.	.	.	.
.	.	.	.	.	4r	.	.	8cc\	vox	8ee-X\	vox
.	.	.	.	.	.	.	.	8cc\	non	8ee-\	non
!	!	!	!	!	!	!	!	!LO:LB:g=original	!	!	!
2D/	7:6	.	.	.	4r	.	.	8cc\	au-	8dd\	aŭ-
.	.	.	.	.	.	.	.	8b-\	-det,	8dd\	-det
.	.	.	.	.	8D/	ti-	.	8r	.	8r	.
!	!	!	!	!	!	!	!	!LO:TX:t=P:problem:kreska pseudotaktowa	!	!LO:TX:t=P:problem:kreska pseudotaktowa	!
.	.	.	.	.	8D/	-met	.	8b-\	non	8dd\	non
4E\	6	0r	0r	1r	4E\	cor	.	8b-\	au-	8cc\	au-
.	.	.	.	.	.	.	.	8a\	-det	8cc\	-det
4F#X\	5-r	.	.	.	8F#X\	pa-	.	8r	.	8r	.
*	*	*	*	*	*	*	*	*	*	*	*ij
.	.	.	.	.	8F#\	-ret	.	8a\	non	8cc\	non
4G\	9:8	.	.	.	8G\	lin-	.	8a\	au-	8b-\	au-
.	.	.	.	.	8G\	-gua	.	8g\	-det	8b-\	-det
*	*	*	*	*	*	*	*	*	*	*	*Xij
!LO:TX:t=P:problem:kreska pseudotaktowa	!	!	!	!	!	!	!	!	!	!	!
4C/	-	.	.	.	8r	.	.	8r	.	8r	.
!	!	!	!	!	!	!	!	!LO:TX:t=P:problem:kreska pseudotaktowa	!	!	!
.	.	.	.	.	8C/	il-	.	8cc\	il-	8ee-X\	il-
!	!	!	!	!	!	!	!	!	!	!LO:PB:g=original	!
=27-	=27-	=27-	=27-	=27-	=27-	=27-	=27-	=27-	=27-	=27-	=27-
4C/	8:7	.	.	2r	8C/	-las	.	8a\	-las	8cc\L	-las
.	.	.	.	.	8C/	at-	.	8g\	at-	8b-\J	at-
4D/	5	.	.	.	8.D/	-tin-	.	8.g\	-tin-	8.a\	-tin-
.	.	.	.	.	16D/	-ge-	.	16f#X\	-ge-	16g\	-ge-
!	!	!	!	!	!	!	!	!LO:TX:t=P:problem:kreska pseudotaktowa	!	!	!
4GG/	.	.	.	4r	4GG/	-re	.	2g/	-re	2g/	-re
!	!	!	!	!	!LO:TX:a:t=P:problem:brakująca pauza?	!	!	!	!	!	!
4E\	.	.	.	8gg\L	4ryy	.	.	.	.	.	.
.	.	.	.	8gg\J	.	.	.	.	.	.	.
!	!	!	!	!LO:LB:g=original	!	!	!	!LO:LB:g=original	!	!	!
!	!	!	!	!	!LO:TX:b:t=3.	!	!	!LO:TX:a:t=3	!	!	!
4Fny\	.	4r	8cc\L	8aa\L	0r	.	.	0r	.	1r	.
.	.	.	8cc\	8aa\J	.	.	.	.	.	.	.
4F#X\	.	8FF#X\L	8dd\	4r	.	.	.	.	.	.	.
.	.	8FF#\J	8dd\J	.	.	.	.	.	.	.	.
!LO:TX:t=P:problem:kreska pseudotaktowa	!	!	!	!	!	!	!	!	!	!	!
2G\	.	8GG\L	8ee\L	4r	.	.	.	.	.	.	.
.	.	8GG\	8ff\	.	.	.	.	.	.	.	.
.	.	8r	8gg\	8bb-\L	.	.	.	.	.	.	.
!	!	!LO:TX:t=P:problem:kreska pseudotaktowa	!LO:TX:t=P:problem:kreska pseudotaktowa	!LO:TX:t=P:problem:kreska pseudotaktowa	!	!	!	!	!	!	!
.	.	8GG\J	8gg\J	8bb-\J	.	.	.	.	.	.	.
!	!	!LO:LB:g=original	!	!	!	!	!	!	!	!	!
=28-	=28-	=28-	=28-	=28-	=28-	=28-	=28-	=28-	=28-	=28-	=28-
8G\L	2	8GG\L	8ee\L	8aa\L	.	.	.	.	.	0r	.
8Fny\J	.	8FFny\J	8ff\J	8aa\	.	.	.	.	.	.	.
4F\	.	4FF\	4ff\	8r	.	.	.	.	.	.	.
.	.	.	.	8aa\J	.	.	.	.	.	.	.
8F\L	2	8r	8dd\L	8gg\L	.	.	.	.	.	.	.
8E\J	.	8EE\L	8ee\J	8gg\	.	.	.	.	.	.	.
!LO:TX:t=P:problem:kreska pseudotaktowa	!	!	!LO:TX:t=P:problem:kreska pseudotaktowa	!	!	!	!	!	!	!	!
4E\	.	8EE\	4ee\	8r	.	.	.	.	.	.	.
!	!	!LO:TX:t=P:problem:kreska pseudotaktowa	!	!LO:TX:t=P:problem:kreska pseudotaktowa	!	!	!	!	!	!	!
.	.	8EE\J	.	8gg\J	.	.	.	.	.	.	.
4D/	.	4DD/	8a/L	4ff\	1r	.	.	1r	.	.	.
!	!	!	!LO:N:acc=#	!	!	!	!	!	!	!	!
.	.	.	8bn/J	.	.	.	.	.	.	.	.
4GG/	.	8GGG/L	8cc\L	8gg\L	.	.	.	.	.	.	.
.	.	8GGG/J	8dd\J	8ff\J	.	.	.	.	.	.	.
!	!	!LO:TX:t=P:problem:kreska pseudotaktowa	!	!	!	!	!	!	!	!	!
2AA/	4#r	2AAA/	4dd\	4.ee\	.	.	.	.	.	.	.
!	!	!	!LO:SIC:v:t=custos dd	!	!	!	!	!	!	!	!
.	.	.	4cc#X\	.	.	.	.	.	.	.	.
!	!	!	!	!LO:TX:t=P:problem:kreska pseudotaktowa	!	!	!	!	!	!	!
.	.	.	.	8ee\	.	.	.	.	.	.	.
!LO:LB:g=original	!	!	!LO:LB:g=original	!	!	!	!	!	!	!	!
=29-	=29-	=29-	=29-	=29-	=29-	=29-	=29-	=29-	=29-	=29-	=29-
!LO:TX:b:t=voce	!	!	!	!	!	!	!	!	!	!	!
2D/	#	2DDD/	2dd\	2ff#X\	2r	.	.	2r	.	4r	.
.	.	.	.	.	.	.	.	.	.	8a\	ti-
.	.	.	.	.	.	.	.	.	.	8a\	-met
4D/	.	2r	2r	2r	4r	.	.	4r	.	4b-\	cor
!	!	!	!	!	!	!	!	!	!	!LO:TX:t=P:problem:kreska pseudotaktowa	!
4E\	.	.	.	.	8E\	pa-	.	8g/	pa-	4r	.
!	!	!	!	!	!	!	!	!LO:TX:t=P:problem:kreska pseudotaktowa	!	!	!
.	.	.	.	.	8E\	-ret	.	8g/	-ret	.	.
!	!	!	!LO:TX:a:t=20.	!LO:TX:a:t=20	!	!LO:LB:g=original	!	!	!	!	!
4F\	.	00r	00r	00r	8Fny\	lin-	.	8a\	lin-	4r	.
.	.	.	.	.	8F\	-gua	.	8a\	-gua	.	.
4C#X/	.	.	.	.	8C#X/	vox	.	4r	.	8eeny\	vox
.	.	.	.	.	8C#/	non	.	.	.	8ee\	non
!LO:TX:t=P:problem:kreska pseudotaktowa	!	!	!	!	!	!	!	!	!	!	!
2D/	.	.	.	.	8D/	aŭ-	.	4r	.	8ff\	au-
.	.	.	.	.	8D/	-det	.	.	.	8ff\	-det
*	*	*	*	*	*	*	*	*	*	*	*ij
.	.	.	.	.	8D/	vox	.	8dd\	vox	8ff\	vox
!	!	!	!	!	!	!	!	!LO:TX:t=P:problem:kreska pseudotaktowa	!	!	!
.	.	.	.	.	8D/	non	.	8dd\	non	8ff\	non
=30-	=30-	=30-	=30-	=30-	=30-	=30-	=30-	=30-	=30-	=30-	=30-
4GG/	.	.	.	.	8GG/	aŭ-	.	8dd\	au-	8ee\	au-
.	.	.	.	.	8GG/	-det	.	8cc\	-det	8ee\	-det
*	*	*	*	*	*	*	*	*	*	*	*Xij
4AA/	.	.	.	.	8r	.	.	8r	.	8r	.
.	.	.	.	.	8AA/	non	.	8cc\	non	8ee\	non
2BB-y/	.	.	.	.	4BB-y/	aŭ-	.	(8cc\	au-	4dd\	au-
.	.	.	.	.	.	.	.	8b-\)	.	.	.
!	!	!	!	!	!	!	!	!LO:TX:t=P:problem:kreska pseudotaktowa	!	!LO:TX:t=P:problem:kreska pseudotaktowa	!
.	.	.	.	.	4BB-/	-det	.	4b-\	-det	4dd\	-det
!	!	!	!	!	!	!	!	!LO:PB:g=original	!	!	!
(8E-X\L	6	.	.	.	4E-X\	il-	.	4g/	il-	4cc\	il-
8F\J)	5	.	.	.	.	.	.	.	.	.	.
4G\	.	.	.	.	8F\	-las	.	8a\	-los	8cc\	-las
.	.	.	.	.	8G\	at-	.	8b-\	at-	8b-\	at-
!LO:TX:t=P:problem:kreska pseudotaktowa	!	!	!	!	!	!	!	!	!	!LO:LB:g=original	!
2F\	4:3	.	.	.	4.F\	-tin-	.	4.b-\	-tin-	4.cc\	-tin-
!	!	!	!	!	!LO:TX:t=P:problem:kreska pseudotaktowa	!	!	!LO:TX:t=P:problem:kreska pseudotaktowa	!	!LO:TX:t=P:problem:kreska pseudotaktowa	!
.	.	.	.	.	8FF/	-ge-	.	8a\	-ge-	8cc\	-ge-
=31-	=31-	=31-	=31-	=31-	=31-	=31-	=31-	=31-	=31-	=31-	=31-
2BB-/	.	.	.	.	4BB-/	-re	.	4b-\	-re	4dd\	-re
.	.	.	.	.	8r	.	.	8r	.	8r	.
.	.	.	.	.	8BB-/	non	.	8b-\	non	8dd\	non
!	!	!	!	!	!LO:LB:g=original	!	!	!	!	!	!
4.F\	.	.	.	.	8F\	aŭ-	.	8b-\	au-	8cc\	au-
.	.	.	.	.	8F\	-det	.	8a\	-det	8cc\	-det
.	.	.	.	.	8r	.	.	8r	.	8r	.
*	*	*	*	*	*	*	*	*	*ij	*	*ij
!LO:TX:t=P:problem:kreska pseudotaktowa	!	!	!	!	!	!	!	!LO:TX:t=P:problem:kreska pseudotaktowa	!	!LO:TX:t=P:problem:kreska pseudotaktowa	!
8D/	.	.	.	.	8D\	non	.	8b-\	non	8dd\	non
4E-X\	.	00r	00r	00r	8E-X\	aŭ-	.	8g/	au-	8b-\	au-
.	.	.	.	.	8E-\	-det	.	8g/	-det	8b-\	-det
*	*	*	*	*	*	*	*	*	*Xij	*	*Xij
4Cny/	6	.	.	.	8Cny/	il-	.	8a\	il-	8cc\	il-
.	.	.	.	.	16C/	-las	.	16g\	-los	16cc\	-las
.	.	.	.	.	16C/	at-	.	16g\	at-	16b-\	at-
!LO:TX:t=P:problem:kreska pseudotaktowa	!	!	!	!	!	!	!	!	!	!	!
2D/	4#r	.	.	.	4.D/	-tin-	.	4.g/	-tin-	4.a\	-tin-
!	!	!	!	!	!	!	!	!	!	!LO:TX:t=P:problem:kreska pseudotaktowa	!
.	.	.	.	.	8D\	-ge-	.	8f#X/	-ge-	8a\	-ge-
!	!	!	!	!	!	!	!	!LO:LB:g=original	!	!	!
=32-	=32-	=32-	=32-	=32-	=32-	=32-	=32-	=32-	=32-	=32-	=32-
!	!	!	!	!	!	!	!	!	!	!LO:N:acc=#	!
1GG	#	.	.	.	2GG/	-re	.	2g/	-re	2bn\	-re
.	.	.	.	.	2r	.	.	2r	.	4r	.
!	!	!	!	!	!	!	!	!	!	!LO:TX:t=P:problem:kreska pseudotaktowa	!
.	.	.	.	.	.	.	.	.	.	4dd\	o
!LO:TX:b:t=Canto i Sol&colon;	!	!	!	!	!	!	!	!	!	!	!
2GG/	-	.	.	.	00r	.	.	00r	.	4b\	quan-
.	.	.	.	.	.	.	.	.	.	8b\	-to
.	.	.	.	.	.	.	.	.	.	8b\	con-
!LO:TX:t=P:problem:kreska pseudotaktowa	!	!	!	!	!	!	!	!	!	!	!
2AA/	6\	.	.	.	.	.	.	.	.	8.f#X/	-fi-
.	.	.	.	.	.	.	.	.	.	16f#/	-ci-
.	.	.	.	.	.	.	.	.	.	8.f#/	-tŭr
!	!	!	!	!	!	!	!	!	!	!LO:TX:t=P:problem:niewyraźny zapis	!
.	.	.	.	.	.	.	.	.	.	16g/	mo-
!	!	!	!	!	!	!	!	!	!	!LO:LB:g=original	!
=33-	=33-	=33-	=33-	=33-	=33-	=33-	=33-	=33-	=33-	=33-	=33-
1GG	5:6-r	.	.	.	.	.	.	.	.	4g/	-ra-
.	.	.	.	.	.	.	.	.	.	4g/	-re
.	.	.	.	.	.	.	.	.	.	4r	.
!	!	!	!	!	!	!	!	!	!	!LO:TX:t=P:problem:kreska pseudotaktowa	!
.	.	.	.	.	.	.	.	.	.	4ee-X\	ô
!LO:LB:g=original	!	!	!	!	!	!	!	!	!	!	!
2GG/	6-r	00r	00r	00r	.	.	.	.	.	4ee-\	quan-
.	.	.	.	.	.	.	.	.	.	8ee-\	-to
.	.	.	.	.	.	.	.	.	.	8ee-\	c(on)-
2AA/	5-r	.	.	.	.	.	.	.	.	8.ee-\	-fi-
.	.	.	.	.	.	.	.	.	.	16ee-\	-ci-
.	.	.	.	.	.	.	.	.	.	8.ee-\	-tur
!	!	!	!	!	!	!	!	!	!	!LO:TX:t=P:problem:kreska pseudotaktowa	!
.	.	.	.	.	.	.	.	.	.	16dd\	mae-
=34-	=34-	=34-	=34-	=34-	=34-	=34-	=34-	=34-	=34-	=34-	=34-
2BB-/	.	.	.	.	.	.	.	.	.	4dd\	-mo-
.	.	.	.	.	.	.	.	.	.	4dd\	-re
!LO:TX:t=P:problem:kreska pseudotaktowa	!	!	!	!	!	!	!	!	!	!	!
2E-X\	6	.	.	.	.	.	.	.	.	4.cc\	a-
.	.	.	.	.	.	.	.	.	.	16dd\LL	-ni-
!	!	!	!	!	!	!	!	!	!	!LO:TX:t=P:problem:kreska pseudotaktowa	!
.	.	.	.	.	.	.	.	.	.	16ee-X\JJ	-me
2F\	4:3	.	.	.	00r	.	.	2r	.	2cc\	me-
!LO:TX:b:t=Cant&colon; 2 Sol&colon;	!	!	!	!	!	!	!	!	!	!	!
2BB-/	.	.	.	.	.	.	.	4r	.	2b-y\	-a
!	!	!	!	!	!	!	!	!LO:TX:t=P:problem:kreska pseudotaktowa	!	!	!
.	.	.	.	.	.	.	.	4dd\	o	.	.
=35-	=35-	=35-	=35-	=35-	=35-	=35-	=35-	=35-	=35-	=35-	=35-
!LO:TX:t=P:problem:kreska pseudotaktowa	!	!	!	!	!	!	!	!	!	!	!
!LO:N:acc=#	!	!	!	!	!	!	!	!	!	!	!
1BBn	6:5-r	.	.	.	.	.	.	4g/	quan-	00r	.
.	.	.	.	.	.	.	.	8g/	-tã	.	.
.	.	.	.	.	.	.	.	8fny/	re-	.	.
.	.	.	.	.	.	.	.	4f/	-ple-	.	.
.	.	.	.	.	.	.	.	8f/	-tŭr	.	.
!	!	!	!	!	!	!	!	!LO:TX:t=P:problem:kreska pseudotaktowa	!	!	!
.	.	.	.	.	.	.	.	8e/	tri-	.	.
2C/	.	00r	00r	00r	.	.	.	8.e/	-ſti-	.	.
.	.	.	.	.	.	.	.	16e/	-ti-	.	.
.	.	.	.	.	.	.	.	4e/	-a	.	.
2FF/	.	.	.	.	.	.	.	4r	.	.	.
!	!	!	!	!	!	!	!	!LO:TX:t=P:problem:kreska pseudotaktowa	!	!	!
.	.	.	.	.	.	.	.	4a\	cor	.	.
=36-	=36-	=36-	=36-	=36-	=36-	=36-	=36-	=36-	=36-	=36-	=36-
2GG/	4#r	.	.	.	.	.	.	2d/	me-	.	.
!LO:TX:t=P:problem:kreska pseudotaktowa	!	!	!	!	!	!	!	!	!	!	!
2C/	.	.	.	.	.	.	.	4c/	-um	.	.
.	.	.	.	.	.	.	.	8r	.	.	.
!	!	!	!	!	!	!	!	!LO:TX:t=P:problem:kreska pseudotaktowa	!	!	!
.	.	.	.	.	.	.	.	8cc\	o	.	.
!	!	!	!	!	!	!	!	!LO:LB:g=original	!	!	!
2C/	6	.	.	.	00r	.	.	4a\	quan-	.	.
.	.	.	.	.	.	.	.	8a\	-tã	.	.
.	.	.	.	.	.	.	.	8cc\	re-	.	.
2BB-y/	6	.	.	.	.	.	.	4g/	-ple-	.	.
.	.	.	.	.	.	.	.	8g/	-tŭr	.	.
!	!	!	!	!	!	!	!	!LO:TX:t=P:problem:kreska pseudotaktowa	!	!	!
.	.	.	.	.	.	.	.	8g/	tri-	.	.
=37-	=37-	=37-	=37-	=37-	=37-	=37-	=37-	=37-	=37-	=37-	=37-
2AA/	.	.	.	.	.	.	.	4.cc\	-ſti-	0r	.
.	.	.	.	.	.	.	.	8cc\	-ti-	.	.
!LO:TX:t=P:problem:kreska pseudotaktowa	!	!	!	!	!	!	!	!	!	!	!
2GG/	.	.	.	.	.	.	.	8b-\	-a	.	.
.	.	.	.	.	.	.	.	(8dd\	cor	.	.
.	.	.	.	.	.	.	.	8cc\	.	.	.
!	!	!	!	!	!	!	!	!LO:TX:t=P:problem:kreska pseudotaktowa	!	!	!
.	.	.	.	.	.	.	.	8b-\)	.	.	.
2C/	-	00r	00r	00r	.	.	.	4.ee-X\	me-	.	.
.	.	.	.	.	.	.	.	16dd\LL	.	.	.
.	.	.	.	.	.	.	.	16ee-\JJ	.	.	.
2D/	#	.	.	.	.	.	.	4dd\	-um	.	.
!	!	!	!	!	!	!	!	!LO:TX:t=P:problem:kreska pseudotaktowa	!	!	!
.	.	.	.	.	.	.	.	4f#X/	cor	.	.
=38-	=38-	=38-	=38-	=38-	=38-	=38-	=38-	=38-	=38-	=38-	=38-
2E-X\	.	.	.	.	.	.	.	1g	me-	1r	.
!LO:TX:t=P:problem:kreska pseudotaktowa	!	!	!	!	!	!	!	!	!	!	!
!LO:N:acc=#	!	!	!	!	!	!	!	!	!	!	!
2En\	.	.	.	.	.	.	.	.	.	.	.
!LO:TX:b:t=allegro.	!	!	!	!	!	!	!	!	!	!	!
!LO:TX:b:t=a 3	!	!	!	!	!	!	!	!	!	!	!
2.D/	.	.	.	.	4r	.	.	2a\	-um	2r	.
.	.	.	.	.	4D/	non	.	.	.	.	.
!	!	!	!	!	!	!	!	!LO:LB:g=original	!	!	!
.	.	.	.	.	4D/	ſa-	.	4r	.	4r	.
!	!	!	!	!	!	!	!	!LO:TX:t=P:problem:kreska pseudotaktowa	!	!LO:TX:t=P:problem:kreska pseudotaktowa	!
4BB-/	.	.	.	.	8BB-/	-tis	.	4dd\	non	4ff\	non
.	.	.	.	.	8BB-/	non	.	.	.	.	.
!LO:PB:g=original	!	!	!	!	!	!	!	!	!	!	!
=39-	=39-	=39-	=39-	=39-	=39-	=39-	=39-	=39-	=39-	=39-	=39-
!	!	!	!	!	!LO:TX:b:t=allegro.	!	!	!	!	!	!
8C-/L	.	.	.	.	8C/	ſa-	.	8cc\	ſa-	8ee-X\L	fa-
8D/J	.	.	.	.	8D\	-tis	.	8b-\	-tis	8dd\J	-tis
8E-X\L	.	.	.	.	8E-X\	poſ-	.	8b-\	poſ-	8cc\L	of-
8F\J	.	.	.	.	16F\	-ſe	.	16b-\	-ſe	16dd\L	-fe
.	.	.	.	.	16F\	ex	.	16a\	ex	16ee-X\JJ	ex
!	!	!	!	!	!LO:LB:g=original	!	!	!	!	!	!
4BB-/	.	.	.	.	8.BB-/	tol-	.	8.b-\	tol-	8.dd\	tol-
.	.	.	.	.	16BB-/	-le-	.	16cc\	-le-	16cc\	-le-
8BB-/L	.	.	.	.	8BB-/	-re	.	8dd\	-re	8b-\	-re
!LO:TX:t=P:problem:kreska pseudotaktowa	!	!	!	!	!	!	!	!	!	!	!
8AA/J	.	.	.	.	16AA/	tŭ-	laŭ-	16fny/	tu-	16cc\	tŭ-
!	!	!	!	!	!LO:TX:t=P:problem:kreska pseudotaktowa	!	!	!LO:TX:t=P:problem:kreska pseudotaktowa	!	!	!
.	.	.	.	.	16AA/	-as	-des	16f/	-as	16dd\	-as
8BB-/L	.	2r	2r	2r	8BB-/	ti-	.	8f/	laŭ-	8b-\	laŭ-
8BB-/J	.	.	.	.	8BB-/	-bi	.	8f/	-des	16a\	-des
.	.	.	.	.	.	.	.	.	.	16b-\	ti-
4Cny/	.	.	.	.	8C/	can-	.	8e/	ti-	8g\	-bi
.	.	.	.	.	16C/	-ta-	.	16f/	-bi	16a\	e
.	.	.	.	.	16C/	-re	.	16g/	can-	16b-\	an-
4FF/	.	4r	4r	4r	4F\	.	.	16f/LL	-ta-	16a\LL	-ta-
.	.	.	.	.	.	.	.	16g/	.	16b-\	.
.	.	.	.	.	.	.	.	16f/	.	16a\	.
.	.	.	.	.	.	.	.	16g/JJ	.	16g\JJ	.
!LO:TX:b:t=viol	!	!	!	!	!	!	!	!	!	!	!
4F\	.	8r	8r	8r	4F\	.	.	4a\	-re	4fny/	-re
!	!	!LO:TX:t=P:problem:kreska pseudotaktowa	!LO:TX:t=P:problem:kreska pseudotaktowa	!LO:TX:t=P:problem:kreska pseudotaktowa	!	!	!	!	!	!	!
.	.	8FF\	8a/	8cc\	.	.	.	.	.	.	.
=40-	=40-	=40-	=40-	=40-	=40-	=40-	=40-	=40-	=40-	=40-	=40-
!	!	!	!	!	!	!	!	!LO:TX:a:t=3	!	!	!
2BB-/	.	4.BBB-/	16b-y\LL	16dd\LL	0r	.	.	0r	.	0r	.
.	.	.	16ccny\	16ee-X\	.	.	.	.	.	.	.
.	.	.	16dd\	16ffny\	.	.	.	.	.	.	.
.	.	.	16cc\JJ	16ee-X\JJ	.	.	.	.	.	.	.
.	.	.	16b-/LL	16dd\LL	.	.	.	.	.	.	.
.	.	.	16a/	16cc\	.	.	.	.	.	.	.
.	.	8BBB-/	16g/	16b-\	.	.	.	.	.	.	.
.	.	.	16f/JJ	16a\JJ	.	.	.	.	.	.	.
!	!	!	!	!LO:LB:g=original	!	!	!	!	!	!	!
!LO:TX:t=P:problem:kreska pseudotaktowa	!	!	!	!	!	!	!	!	!	!	!
2C/	-	4CC/	16e-X/LL	16g/LL	.	.	.	.	.	.	.
.	.	.	16g/	16b-/	.	.	.	.	.	.	.
.	.	.	16a/	16cc/	.	.	.	.	.	.	.
.	.	.	16b-/JJ	16dd/JJ	.	.	.	.	.	.	.
!	!	!LO:TX:t=P:problem:kreska pseudotaktowa	!	!	!	!	!	!	!	!	!
.	.	4CC/	16cc\LL	16ee-X\LL	.	.	.	.	.	.	.
.	.	.	16a\	16cc\	.	.	.	.	.	.	.
.	.	.	16b-\	16dd\	.	.	.	.	.	.	.
!	!	!	!LO:TX:t=P:problem:kreska pseudotaktowa	!LO:TX:t=P:problem:kreska pseudotaktowa	!	!	!	!	!	!	!
.	.	.	16cc\JJ	16ee-X\JJ	.	.	.	.	.	.	.
2D/	.	4.DD/	2f/	16dd\LL	.	.	.	.	.	.	.
.	.	.	.	16ee-X\	.	.	.	.	.	.	.
.	.	.	.	16ff\	.	.	.	.	.	.	.
.	.	.	.	16ee-X\JJ	.	.	.	.	.	.	.
.	.	.	.	16dd\LL	.	.	.	.	.	.	.
.	.	.	.	16cc\	.	.	.	.	.	.	.
.	.	8DD/	.	16b-\	.	.	.	.	.	.	.
.	.	.	.	16a\JJ	.	.	.	.	.	.	.
2E-X\	5:6	4EE-X\	16r	16g/LL	.	.	.	.	.	.	.
.	.	.	16g/LL	16b-/	.	.	.	.	.	.	.
.	.	.	16a/	16cc/	.	.	.	.	.	.	.
.	.	.	16b-/JJ	16dd/JJ	.	.	.	.	.	.	.
!	!	!LO:TX:t=P:problem:kreska pseudotaktowa	!	!	!	!	!	!	!	!	!
.	.	4EE-\	16cc/LL	16ee-X\LL	.	.	.	.	.	.	.
.	.	.	16a/	16dd\	.	.	.	.	.	.	.
.	.	.	16b-/	16cc\	.	.	.	.	.	.	.
!	!	!	!LO:SIC:v:t=custos f	!LO:TX:t=P:problem:kreska pseudotaktowa	!	!	!	!	!	!	!
.	.	.	16cc/JJ	16b-\JJ	.	.	.	.	.	.	.
!	!	!LO:LB:g=original	!LO:LB:g=original	!	!	!	!	!	!	!	!
=41-	=41-	=41-	=41-	=41-	=41-	=41-	=41-	=41-	=41-	=41-	=41-
4F\	.	4FF\	16f/LL	16a\LL	1r	.	.	1r	.	1r	.
.	.	.	16a/	16cc\	.	.	.	.	.	.	.
.	.	.	16b-/	16dd\	.	.	.	.	.	.	.
.	.	.	16cc/JJ	16ee-X\JJ	.	.	.	.	.	.	.
4D/	6	4DD/	8dd\L	16ff\LL	.	.	.	.	.	.	.
.	.	.	.	16ee-X\	.	.	.	.	.	.	.
.	.	.	8b-\J	16dd\	.	.	.	.	.	.	.
.	.	.	.	16ee-X\JJ	.	.	.	.	.	.	.
4E-X\	6 5	8EE-X\L	4b-/	16cc\LL	.	.	.	.	.	.	.
.	.	.	.	16b-\	.	.	.	.	.	.	.
.	.	8CC\J	.	16cc\	.	.	.	.	.	.	.
.	.	.	.	16dd\JJ	.	.	.	.	.	.	.
!LO:TX:t=P:problem:kreska pseudotaktowa	!	!LO:TX:t=P:problem:mixed beam	!LO:TX:t=P:problem:kreska pseudotaktowa	!LO:TX:t=P:problem:kreska pseudotaktowa	!	!	!	!	!	!	!
4F\	4:3	8FF\L	4a/	4cc\	.	.	.	.	.	.	.
!	!	!LO:TX:t=P:problem:kreska pseudotaktowa	!	!	!	!	!	!	!	!	!
.	.	8FFF/J	.	.	.	.	.	.	.	.	.
!LO:TX:b:t=voce	!	!	!	!	!	!	!	!LO:LB:g=original	!	!	!
4BB-/	.	4BBB-/	4b-/	4dd\	4r	.	.	4r	.	4r	.
4FF/	.	4r	4r	4r	4F\	non	.	4a\	non	4cc\	non
!	!	!	!	!LO:TX:t=P:problem:kreska pseudotaktowa	!	!	!	!	!	!LO:LB:g=original	!
4BB-/	.	2r	2r	2r	8.BB-/	ſa-	.	8g/	ſa-	8b-\	fa-
.	.	.	.	.	.	.	.	8f/	-tis	8a\	-tis
.	.	.	.	.	16BB-/	-tis	.	.	.	.	.
!LO:TX:t=P:problem:kreska pseudotaktowa	!	!	!	!	!	!	!	!	!	!	!
4C/	.	.	.	.	8C/	poſ-	.	8e/	poſ-	8g\	poſ-
.	.	.	.	.	16C/	-ſe	.	16f/	-ſe	16a\	-ſe
!	!	!	!	!	!LO:TX:t=P:problem:kreska pseudotaktowa	!	!	!LO:TX:t=P:problem:kreska pseudotaktowa	!	!	!
.	.	.	.	.	16C/	ex	.	16g/	ex	16b-\	ex
!LO:LB:g=original	!	!	!	!LO:LB:g=original	!	!	!	!	!	!LO:LB:g=original	!
=42-	=42-	=42-	=42-	=42-	=42-	=42-	=42-	=42-	=42-	=42-	=42-
!	!	!	!LO:TX:a:t=16.	!LO:TX:a:t=18.	!	!	!	!	!	!	!
2F\	.	00r	00r	00r	8.F\	tol-	.	8.f/	tol-	8.a\	tol-
.	.	.	.	.	16F\	-le-	.	16f/	-le-	16a\	-le-
.	.	.	.	.	8F\	-re	.	8f/	-re	8a\	-re
.	.	.	.	.	16F\	tŭ-	.	16a/	tŭ-	16cc\	tŭ-
.	.	.	.	.	16F\	-as	.	16b-/	-as	16dd\	-as
!	!	!	!	!	!LO:PB:g=original	!	!	!	!	!	!
4C/	-	.	.	.	8C/	laŭ-	.	8cc\	laŭ-	8ee-X\	laŭ-
.	.	.	.	.	8C/	-des	.	8cc\	-des	8ee-\	-des
4G\	4#r	.	.	.	8G\	et	.	8cc\	et	8.dd\	et
!	!	!	!	!	!LO:TX:t=P:problem:kreska pseudotaktowa	!	!	!LO:TX:t=P:problem:kreska pseudotaktowa	!	!	!
!	!	!	!	!	!	!	!	!LO:N:acc=#	!	!	!
.	.	.	.	.	8GG/	can-	.	8bn\	can-	.	.
!	!	!	!	!	!	!	!	!	!	!LO:TX:t=P:problem:kreska pseudotaktowa	!
.	.	.	.	.	.	.	.	.	.	16dd\	can-
2C/	.	.	.	.	8C/	-ta-	.	8cc\	-ta-	4cc\	-ta-
.	.	.	.	.	8C/	-re	.	8cc\	-re	.	.
.	.	.	.	.	4r	.	.	8g\	et	4cc\	-re
.	.	.	.	.	.	.	.	8g\	can-	.	.
!LO:TX:t=P:problem:kreska pseudotaktowa	!	!	!	!	!	!	!	!LO:LB:g=original	!	!	!
2FF/	.	.	.	.	4r	.	.	16a\LL	-ta-	4r	.
.	.	.	.	.	.	.	.	16b\	.	.	.
.	.	.	.	.	.	.	.	16cc\	.	.	.
.	.	.	.	.	.	.	.	16b\JJ	.	.	.
.	.	.	.	.	8r	.	.	16a\LL	.	8cc\	et
.	.	.	.	.	.	.	.	16g\JJ	.	.	.
!	!	!	!	!	!LO:TX:t=P:problem:kreska pseudotaktowa	!	!	!	!	!LO:TX:t=P:problem:kreska pseudotaktowa	!
.	.	.	.	.	8F\	can-	.	16f/LL	.	8cc\	can-
!	!	!	!	!	!	!	!	!LO:TX:t=P:problem:kreska pseudotaktowa	!	!	!
.	.	.	.	.	.	.	.	16e/JJ	.	.	.
=43-	=43-	=43-	=43-	=43-	=43-	=43-	=43-	=43-	=43-	=43-	=43-
!	!	!	!	!	!	!	!	!LO:TX:t=P:problem:mixed beam	!	!	!
2BB-/	.	.	.	.	8BB-/	-ta-	.	8d/L	.	16dd\LL	-ta-
.	.	.	.	.	.	.	.	.	.	16eeny\	.
.	.	.	.	.	8BB-/	-re	.	16dd\L	.	16ff\	.
.	.	.	.	.	.	.	.	16cc\JJ	.	16ee\JJ	.
.	.	.	.	.	8r	.	.	16b-y\LL	.	16dd\LL	.
.	.	.	.	.	.	.	.	16a\	.	16cc\	.
*	*	*	*	*	*	*ij	*	*	*	*	*
.	.	.	.	.	8BB-/	can-	.	16g\	.	16b-\	.
.	.	.	.	.	.	.	.	16f\JJ	.	16a\JJ	.
2C/	.	.	.	.	8C/	-ta-	.	16e/LL	.	16g\LL	.
.	.	.	.	.	.	.	.	16a/	.	16cc\	.
.	.	.	.	.	8C/	-re	.	16g/	.	16b-\	.
*	*	*	*	*	*	*Xij	*	*	*	*	*
.	.	.	.	.	.	.	.	16f/JJ	.	16a\JJ	.
.	.	.	.	.	8C/	et	.	16e/LL	.	16g/LL	.
.	.	.	.	.	.	.	.	16f/	.	16a/	.
!	!	!	!	!	!LO:TX:t=P:problem:kreska pseudotaktowa	!	!	!	!	!	!
.	.	.	.	.	8C/	can-	.	16d/	.	16f/	.
!	!	!	!	!	!	!	!	!LO:TX:t=P:problem:kreska pseudotaktowa	!	!LO:TX:t=P:problem:kreska pseudotaktowa	!
.	.	.	.	.	.	.	.	16e/JJ	.	16g/JJ	.
4F\	.	.	.	.	16F\LL	-ta-	.	8f/	.	8a\	.
.	.	.	.	.	16G\	.	.	.	.	.	.
.	.	.	.	.	16F\	.	.	8f/	-re	8a\	-re
.	.	.	.	.	16Eny\JJ	.	.	.	.	.	.
4BB-/	.	.	.	.	16D/LL	.	.	8f/	et	8dd\	et
.	.	.	.	.	16E/	.	.	.	.	.	.
.	.	.	.	.	16D/	.	.	8f/	can-	8dd\	can-
.	.	.	.	.	16BB-/JJ	.	.	.	.	.	.
!LO:TX:t=P:problem:kreska pseudotaktowa	!	!	!	!	!	!	!	!	!	!LO:LB:g=original	!
2C/	4:3	.	.	.	8C/L	.	.	(4f/	-ta-	2g/	-ta-
.	.	.	.	.	8FF/J	.	.	.	.	.	.
!	!	!	!	!	!LO:TX:t=P:problem:kreska pseudotaktowa	!	!	!LO:TX:t=P:problem:kreska pseudotaktowa	!	!	!
.	.	.	.	.	4C/	.	.	4e/)	.	.	.
=44-	=44-	=44-	=44-	=44-	=44-	=44-	=44-	=44-	=44-	=44-	=44-
!LO:TX:b:t=Baſſo Sol&colon;	!	!	!	!	!	!	!	!	!	!	!
2FF/	.	00r	00r	00r	2FF/	-re	.	2f/	-re	2a\	-re.
2F\	.	.	.	.	4r	.	.	2r	.	2r	.
.	.	.	.	.	4c\	Da	.	.	.	.	.
!LO:TX:t=P:problem:kreska pseudotaktowa	!	!	!	!	!	!	!	!LO:TX:a:t=20	!	!	!
1F	.	.	.	.	8.F\	do-	.	1r	.	0.r	.
.	.	.	.	.	16F\	-mi-	.	.	.	.	.
!	!	!	!	!	!LO:LB:g=original	!	!	!	!	!	!
.	.	.	.	.	4F\	-ne	.	.	.	.	.
.	.	.	.	.	4r	.	.	.	.	.	.
.	.	.	.	.	8F\L	cor-	.	.	.	.	.
!	!	!	!	!	!LO:TX:t=P:problem:kreska pseudotaktowa	!	!	!	!	!	!
.	.	.	.	.	8A\J	.	.	.	.	.	.
=45-	=45-	=45-	=45-	=45-	=45-	=45-	=45-	=45-	=45-	=45-	=45-
2D/	7:6	.	.	.	4D/	-di	.	00r	.	.	.
.	.	.	.	.	8E\	me-	.	.	.	.	.
.	.	.	.	.	8F\	-o	.	.	.	.	.
2C/	.	.	.	.	8.C/	ſtan-	.	.	.	.	.
.	.	.	.	.	16C/	-ti-	.	.	.	.	.
!	!	!	!	!	!LO:TX:t=P:problem:kreska pseudotaktowa	!	!	!	!	!	!
.	.	.	.	.	4C/	-am	.	.	.	.	.
2C/	.	.	.	.	8r	.	.	.	.	.	.
.	.	.	.	.	(16c\LL	lin-	.	.	.	.	.
.	.	.	.	.	16B-\JJ)	.	.	.	.	.	.
.	.	.	.	.	(16A\LL	-guae	.	.	.	.	.
.	.	.	.	.	16G\JJ)	.	.	.	.	.	.
.	.	.	.	.	(16F\LL	flu-	.	.	.	.	.
.	.	.	.	.	16E\JJ)	.	.	.	.	.	.
!LO:TX:t=P:problem:kreska pseudotaktowa	!	!	!	!	!	!	!	!	!	!	!
2D/	.	.	.	.	8D\L	-en-	.	.	.	.	.
.	.	.	.	.	16F\L	.	.	.	.	.	.
.	.	.	.	.	16E\JJ	.	.	.	.	.	.
.	.	.	.	.	16D/LL	.	.	.	.	.	.
.	.	.	.	.	16BB-/	.	.	.	.	.	.
.	.	.	.	.	16C/	.	.	.	.	.	.
.	.	.	.	.	16D/JJ	.	.	.	.	.	.
=46-	=46-	=46-	=46-	=46-	=46-	=46-	=46-	=46-	=46-	=46-	=46-
2GG/	.	00r	00r	00r	8.GG/	.	.	.	.	00r	.
.	.	.	.	.	16GG/	-ti-	.	.	.	.	.
.	.	.	.	.	8GG/	-am	.	.	.	.	.
.	.	.	.	.	8GG/	et	.	.	.	.	.
4AA/	.	.	.	.	8AA/L	vo-	.	.	.	.	.
.	.	.	.	.	16BB-/L	.	.	.	.	.	.
.	.	.	.	.	16C/JJ	.	.	.	.	.	.
!LO:N:acc=#	!	!	!	!	!LO:N:acc=#	!	!	!	!	!	!
4BBn/	.	.	.	.	16BBn/LL	.	.	.	.	.	.
.	.	.	.	.	16C/JJ	.	.	.	.	.	.
.	.	.	.	.	16AA/LL	.	.	.	.	.	.
!	!	!	!	!	!LO:TX:t=P:problem:kreska pseudotaktowa	!	!	!	!	!	!
.	.	.	.	.	16BB/JJ	.	.	.	.	.	.
!	!	!	!	!	!LO:LB:g=original	!	!	!	!	!	!
2C/	.	.	.	.	8C/	.	.	.	.	.	.
.	.	.	.	.	8C/	-ci	.	.	.	.	.
.	.	.	.	.	8r	.	.	.	.	.	.
.	.	.	.	.	8C/	et	.	.	.	.	.
4D/	6 5	.	.	.	8D\L	vo-	.	.	.	.	.
.	.	.	.	.	16E\L	.	.	.	.	.	.
.	.	.	.	.	16F\JJ	.	.	.	.	.	.
4Eny\	6	.	.	.	16E\LL	.	.	.	.	.	.
.	.	.	.	.	16F\JJ	.	.	.	.	.	.
.	.	.	.	.	16D\LL	.	.	.	.	.	.
!	!	!	!	!	!LO:TX:t=P:problem:kreska pseudotaktowa	!	!	!	!	!	!
.	.	.	.	.	16E\JJ	.	.	.	.	.	.
!LO:LB:g=original	!	!	!	!	!	!	!	!	!	!	!
=47-	=47-	=47-	=47-	=47-	=47-	=47-	=47-	=47-	=47-	=47-	=47-
2F\	.	.	.	.	16F\LL	.	.	00r	.	.	.
.	.	.	.	.	16G\	.	.	.	.	.	.
.	.	.	.	.	16F\	.	.	.	.	.	.
.	.	.	.	.	16G\JJ	.	.	.	.	.	.
.	.	.	.	.	16A\LL	.	.	.	.	.	.
.	.	.	.	.	16B-\	.	.	.	.	.	.
.	.	.	.	.	16A\	.	.	.	.	.	.
.	.	.	.	.	16B-\JJ	.	.	.	.	.	.
2E\	.	.	.	.	16c\LL	.	.	.	.	.	.
.	.	.	.	.	16G\	.	.	.	.	.	.
.	.	.	.	.	16A\	.	.	.	.	.	.
.	.	.	.	.	16B-\JJ	.	.	.	.	.	.
.	.	.	.	.	16c\LL	.	.	.	.	.	.
.	.	.	.	.	16G\	.	.	.	.	.	.
.	.	.	.	.	16A\	.	.	.	.	.	.
!	!	!	!	!	!LO:TX:t=P:problem:kreska pseudotaktowa	!	!	!	!	!	!
.	.	.	.	.	16E\JJ	.	.	.	.	.	.
2D/	.	.	.	.	16F\LL	.	.	.	.	.	.
.	.	.	.	.	16G\	.	.	.	.	.	.
.	.	.	.	.	16F\	.	.	.	.	.	.
.	.	.	.	.	16G\JJ	.	.	.	.	.	.
!	!	!	!	!	!LO:TX:t=P:problem:mixed beam	!	!	!	!	!	!
.	.	.	.	.	16A\LL	.	.	.	.	.	.
.	.	.	.	.	16D/	.	.	.	.	.	.
.	.	.	.	.	16E/	.	.	.	.	.	.
.	.	.	.	.	16F/JJ	.	.	.	.	.	.
!LO:TX:t=P:problem:kreska pseudotaktowa	!	!	!	!	!	!	!	!	!	!	!
2C/	.	.	.	.	4E\	.	.	.	.	.	.
.	.	.	.	.	8E\	-ci	.	.	.	.	.
!	!	!	!	!	!LO:TX:t=P:problem:kreska pseudotaktowa	!	!	!	!	!	!
.	.	.	.	.	8G\	ju-	.	.	.	.	.
=48-	=48-	=48-	=48-	=48-	=48-	=48-	=48-	=48-	=48-	=48-	=48-
!	!	!	!	!	!	!	!	!	!	!LO:TX:b:t=21.	!
4FF/	.	00r	00r	00r	8A\	-cŭn-	.	.	.	00r	.
.	.	.	.	.	8D/	-di-	.	.	.	.	.
4GG/	4#r	.	.	.	4D/	-ta-	.	.	.	.	.
!LO:TX:t=P:problem:kreska pseudotaktowa	!	!	!	!	!	!	!	!	!	!	!
2C/	.	.	.	.	4C/	-tem	.	.	.	.	.
.	.	.	.	.	8r	.	.	.	.	.	.
.	.	.	.	.	8C/	et	.	.	.	.	.
!	!	!	!	!	!LO:LB:g=original	!	!	!	!	!	!
4D\	.	.	.	.	8D\L	vo-	.	.	.	.	.
.	.	.	.	.	16E\L	.	.	.	.	.	.
.	.	.	.	.	16F\JJ	.	.	.	.	.	.
4E\	.	.	.	.	16E\LL	.	.	.	.	.	.
.	.	.	.	.	16F\JJ	.	.	.	.	.	.
.	.	.	.	.	16D\LL	.	.	.	.	.	.
.	.	.	.	.	16E\JJ	.	.	.	.	.	.
4F\	.	.	.	.	8F\	.	.	.	.	.	.
.	.	.	.	.	8F\	-ci	.	.	.	.	.
!LO:TX:t=P:problem:kreska pseudotaktowa	!	!	!	!	!	!	!	!	!	!	!
4AA/	6	.	.	.	8r	.	.	.	.	.	.
!	!	!	!	!	!LO:TX:t=P:problem:kreska pseudotaktowa	!	!	!	!	!	!
.	.	.	.	.	8AA/	ju-	.	.	.	.	.
=49-	=49-	=49-	=49-	=49-	=49-	=49-	=49-	=49-	=49-	=49-	=49-
2BB-y/	.	.	.	.	16BB-y/LL	-cŭn-	.	00r	.	.	.
.	.	.	.	.	16C/	.	.	.	.	.	.
.	.	.	.	.	16D/	.	.	.	.	.	.
.	.	.	.	.	16E/JJ	.	.	.	.	.	.
.	.	.	.	.	16F\LL	.	.	.	.	.	.
.	.	.	.	.	16G\JJ	.	.	.	.	.	.
.	.	.	.	.	(16A\LL	-di-	.	.	.	.	.
.	.	.	.	.	16B-\JJ)	.	.	.	.	.	.
!	!	!	!	!	!LO:TX:t=P:problem:mixed beam	!	!	!	!	!	!
8C/L	.	.	.	.	16c\LL	-ta-	.	.	.	.	.
.	.	.	.	.	16C/	.	.	.	.	.	.
8BB-/J	.	.	.	.	16D/	.	.	.	.	.	.
.	.	.	.	.	16BB-/JJ	.	.	.	.	.	.
4C/	4:3	.	.	.	4C/	.	.	.	.	.	.
4FF/	.	.	.	.	4FF/	-tem	.	.	.	.	.
4F\	.	.	.	.	8r	.	.	.	.	.	.
.	.	.	.	.	8F\	ut	.	.	.	.	.
4G\	.	.	.	.	8G\	ſi-	.	.	.	.	.
.	.	.	.	.	8G\	-ne	.	.	.	.	.
!LO:TX:t=P:problem:kreska pseudotaktowa	!	!	!	!	!	!	!	!	!	!	!
4A\	#	.	.	.	8A\	fi-	.	.	.	.	.
!	!	!	!	!	!LO:TX:t=P:problem:kreska pseudotaktowa	!	!	!	!	!	!
.	.	.	.	.	8A\	-ne	.	.	.	.	.
=50-	=50-	=50-	=50-	=50-	=50-	=50-	=50-	=50-	=50-	=50-	=50-
!LO:TX:b:t=viol. 2.	!	!	!	!	!	!	!	!	!	!	!
2D/	.	1r	4r	0r	8.D/	va-	.	.	.	00r	.
.	.	.	.	.	16D/	-le-	.	.	.	.	.
.	.	.	8r	.	8D/	-am	.	.	.	.	.
.	.	.	8b-/	.	8D/	laŭ-	.	.	.	.	.
!	!	!	!	!	!LO:LB:g=original	!	!	!	!	!	!
4E\	6	.	8cc\L	.	16E\LL	-da-	.	.	.	.	.
.	.	.	.	.	16G\	.	.	.	.	.	.
.	.	.	8cc\	.	16F\	.	.	.	.	.	.
.	.	.	.	.	16E\JJ	.	.	.	.	.	.
4F#X\	6	.	8dd\	.	16F\LL	.	.	.	.	.	.
.	.	.	.	.	16G\	.	.	.	.	.	.
!	!	!	!LO:TX:t=P:problem:kreska pseudotaktowa	!	!	!	!	!	!	!	!
.	.	.	8dd\J	.	16E\	.	.	.	.	.	.
!	!	!	!	!	!LO:TX:t=P:problem:kreska pseudotaktowa	!	!	!	!	!	!
.	.	.	.	.	16F\JJ	.	.	.	.	.	.
4G\	.	4r	8.g/L	.	8G\	.	.	.	.	.	.
.	.	.	.	.	8G\	-re	.	.	.	.	.
.	.	.	16g/Jk	.	.	.	.	.	.	.	.
4BB-/	6	8r	8g/L	.	4r	.	.	.	.	.	.
.	.	8BBB-/	8d/J	.	.	.	.	.	.	.	.
4C/	.	8CC/L	16eny/LL	.	2r	.	.	.	.	.	.
.	.	.	16g/	.	.	.	.	.	.	.	.
.	.	8CC/	16f#X/	.	.	.	.	.	.	.	.
.	.	.	16e/JJ	.	.	.	.	.	.	.	.
!LO:TX:t=P:problem:kreska pseudotaktowa	!	!	!	!	!	!	!	!	!	!	!
4D/	#	8DD/	16f#X/LL	.	.	.	.	.	.	.	.
.	.	.	16g/	.	.	.	.	.	.	.	.
!	!	!LO:TX:t=P:problem:kreska pseudotaktowa	!	!	!	!	!	!	!	!	!
.	.	8DD/J	16e/	.	.	.	.	.	.	.	.
!	!	!	!LO:SIC:v:t=custos g	!	!	!	!	!	!	!	!
.	.	.	16f#X/JJ	.	.	.	.	.	.	.	.
!	!	!	!LO:LB:g=original	!	!	!	!	!	!	!	!
=51-	=51-	=51-	=51-	=51-	=51-	=51-	=51-	=51-	=51-	=51-	=51-
!LO:TX:b:t=viol. 1.	!	!	!	!	!	!	!	!	!	!	!
2GG/	.	8.GGG/L	4g/	4r	00r	.	.	00r	.	.	.
.	.	16GGG/Jk	.	.	.	.	.	.	.	.	.
.	.	8GGG/L	8g/L	8r	.	.	.	.	.	.	.
.	.	8GGG/J	8g/J	8b-\	.	.	.	.	.	.	.
4AA/	7:6	16AAA/LL	8g/L	8cc\L	.	.	.	.	.	.	.
.	.	16CC/	.	.	.	.	.	.	.	.	.
!	!	!LO:N:acc=#	!	!	!	!	!	!	!	!	!
.	.	16BBBn/	8fny/	8cc\	.	.	.	.	.	.	.
.	.	16AAA/JJ	.	.	.	.	.	.	.	.	.
!LO:N:acc=#	!	!LO:N:acc=#	!	!	!	!	!	!	!	!	!
4BBn/	5-r	16BBBn/LL	8f/	8dd\	.	.	.	.	.	.	.
.	.	16CC/	.	.	.	.	.	.	.	.	.
!	!	!	!LO:TX:t=P:problem:kreska pseudotaktowa	!LO:TX:t=P:problem:kreska pseudotaktowa	!	!	!	!	!	!	!
.	.	16AAA/	8f/J	8dd\J	.	.	.	.	.	.	.
!	!	!LO:TX:t=P:problem:kreska pseudotaktowa	!	!	!	!	!	!	!	!	!
.	.	16BBB/JJ	.	.	.	.	.	.	.	.	.
!LO:LB:g=original	!	!LO:LB:g=original	!	!	!	!	!	!	!	!	!
4C/	-	8CC/L	8f/L	8.g/L	.	.	.	.	.	.	.
.	.	8CC/J	8e-X/	.	.	.	.	.	.	.	.
.	.	.	.	16g/Jk	.	.	.	.	.	.	.
4E-X\	.	8r	8e-/	8g/L	.	.	.	.	.	.	.
.	.	8EE-X\	8d/J	8g/J	.	.	.	.	.	.	.
!	!	!LO:TX:t=P:problem:mixed beam	!	!	!	!	!	!	!	!	!
4Fny\	6	8FF\L	4.d/	16a/LL	.	.	.	.	.	.	.
.	.	.	.	16cc/	.	.	.	.	.	.	.
!	!	!	!	!LO:N:acc=#	!	!	!	!	!	!	!
.	.	8FF\	.	16bn/	.	.	.	.	.	.	.
.	.	.	.	16a/JJ	.	.	.	.	.	.	.
!	!	!	!	!LO:N:acc=#	!	!	!	!	!	!	!
4G\	#	8.GG\	.	16bn\LL	.	.	.	.	.	.	.
.	.	.	.	16dd\	.	.	.	.	.	.	.
!	!	!	!LO:TX:t=P:problem:kreska pseudotaktowa	!	!	!	!	!	!	!	!
.	.	.	8c/	16cc\	.	.	.	.	.	.	.
!	!	!LO:TX:t=P:problem:kreska pseudotaktowa	!	!LO:TX:t=P:problem:kreska pseudotaktowa	!	!	!	!	!	!	!
.	.	16GGG/Jk	.	16b\JJ	.	.	.	.	.	.	.
=52-	=52-	=52-	=52-	=52-	=52-	=52-	=52-	=52-	=52-	=52-	=52-
4.C/	-	4CC/	4c/	4ee-X\	.	.	.	.	.	00r	.
.	.	8r	8r	8ee-\L	.	.	.	.	.	.	.
8C/	.	8CC/	8cc\	8ee-\J	.	.	.	.	.	.	.
4FF/	6	8FFF/L	8cc\L	8dd\L	.	.	.	.	.	.	.
.	.	8FFF/J	8cc\	8ee-X\	.	.	.	.	.	.	.
!LO:TX:t=P:problem:kreska pseudotaktowa	!	!LO:TX:t=P:problem:kreska pseudotaktowa	!	!	!	!	!	!	!	!	!
4GG/	4#r	4GGG/	8cc\	8.dd\	.	.	.	.	.	.	.
!	!	!	!LO:TX:t=P:problem:kreska pseudotaktowa	!	!	!	!	!	!	!	!
!	!	!	!LO:N:acc=#	!	!	!	!	!	!	!	!
.	.	.	8bn\J	.	.	.	.	.	.	.	.
!	!	!	!	!LO:TX:t=P:problem:kreska pseudotaktowa	!	!	!	!	!	!	!
.	.	.	.	16cc\Jk	.	.	.	.	.	.	.
2C/	.	2CCC/	4cc\	2cc\	.	.	.	.	.	.	.
.	.	.	8r	.	.	.	.	.	.	.	.
.	.	.	8g/	.	.	.	.	.	.	.	.
!	!	!	!	!LO:TX:t=P:problem:kreska pseudotaktowa	!	!	!	!	!	!	!
4F\	.	8r	16a/LL	2r	.	.	.	.	.	.	.
.	.	.	16cc/	.	.	.	.	.	.	.	.
!	!	!	!LO:TX:t=P:problem:# below	!	!	!	!	!	!	!	!
!	!	!	!LO:N:acc=#	!	!	!	!	!	!	!	!
.	.	8FFF/L	16bn/	.	.	.	.	.	.	.	.
.	.	.	16a/JJ	.	.	.	.	.	.	.	.
!	!	!	!LO:N:acc=#	!	!	!	!	!	!	!	!
4G\	#	8GGG/	16bn/LL	.	.	.	.	.	.	.	.
.	.	.	16cc/	.	.	.	.	.	.	.	.
!	!	!LO:TX:t=P:problem:kreska pseudotaktowa	!	!	!	!	!	!	!	!	!
.	.	8GGG/J	16a/	.	.	.	.	.	.	.	.
!	!	!	!LO:N:acc=#	!	!	!	!	!	!	!	!
.	.	.	16bn/JJ	.	.	.	.	.	.	.	.
!	!	!	!LO:LB:g=original	!	!	!	!	!	!	!	!
=53-	=53-	=53-	=53-	=53-	=53-	=53-	=53-	=53-	=53-	=53-	=53-
4A\	.	8.AAA/L	16cc\LL	4r	0r	.	.	0r	.	.	.
.	.	.	16a\	.	.	.	.	.	.	.	.
.	.	.	16cc\	.	.	.	.	.	.	.	.
.	.	16AAA/Jk	16b-y\JJ	.	.	.	.	.	.	.	.
4AA/	.	8AAA/L	16a/LL	8r	.	.	.	.	.	.	.
.	.	.	16g/	.	.	.	.	.	.	.	.
.	.	8AAA/J	16f/	8c/	.	.	.	.	.	.	.
.	.	.	16eny/JJ	.	.	.	.	.	.	.	.
!	!	!	!	!LO:LB:g=original	!	!	!	!	!	!	!
!	!	!	!LO:TX:t=P:problem:mixed beam	!	!	!	!	!	!	!	!
4BB-y/	.	8BBB-y/L	8d/L	16/LL	.	.	.	.	.	.	.
.	.	.	.	16f/	.	.	.	.	.	.	.
.	.	8BBB-/	8b-\J	16e/	.	.	.	.	.	.	.
.	.	.	.	16d/JJ	.	.	.	.	.	.	.
!LO:TX:t=P:problem:kreska pseudotaktowa	!	!	!LO:TX:t=P:problem:mixed beam	!	!	!	!	!	!	!	!
4C/	.	8CC/	8g/L	16e/LL	.	.	.	.	.	.	.
.	.	.	.	16f/	.	.	.	.	.	.	.
!	!	!	!LO:TX:t=P:problem:kreska pseudotaktowa	!	!	!	!	!	!	!	!
.	.	8CC/J	8cc\J	16d/	.	.	.	.	.	.	.
!	!	!	!	!LO:TX:t=P:problem:kreska pseudotaktowa	!	!	!	!	!	!	!
.	.	.	.	16e/JJ	.	.	.	.	.	.	.
!	!	!LO:LB:g=original	!	!	!	!	!	!	!	!	!
4D/	.	4DD/	16a/LL	16f/LL	.	.	.	.	.	.	.
.	.	.	16b-/	16g/	.	.	.	.	.	.	.
.	.	.	16a/	16f/	.	.	.	.	.	.	.
.	.	.	16b-/JJ	16g/JJ	.	.	.	.	.	.	.
4AA/	6	8AAA/L	8cc\L	8a/L	.	.	.	.	.	.	.
.	.	8AAA/J	16b-\L	16g/L	.	.	.	.	.	.	.
.	.	.	16a\JJ	16f/JJ	.	.	.	.	.	.	.
4C/	.	8CC/L	16g/LL	16e/LL	.	.	.	.	.	.	.
.	.	.	16a/	16f/	.	.	.	.	.	.	.
.	.	8CC/J	16g/	16e/	.	.	.	.	.	.	.
.	.	.	16a/JJ	16f/JJ	.	.	.	.	.	.	.
!	!	!LO:TX:t=P:problem:kreska pseudotaktowa	!	!	!	!	!	!	!	!	!
4GG/	.	4GGG/	8b-/L	8g/L	.	.	.	.	.	.	.
.	.	.	16a/L	16f/L	.	.	.	.	.	.	.
!	!	!	!LO:TX:t=P:problem:kreska pseudotaktowa	!LO:TX:t=P:problem:kreska pseudotaktowa	!	!	!	!	!	!	!
.	.	.	16g/JJ	16e/JJ	.	.	.	.	.	.	.
=54-	=54-	=54-	=54-	=54-	=54-	=54-	=54-	=54-	=54-	=54-	=54-
4BB-/	.	4BBB-/	16f/LL	16d/LL	4r	.	.	1r	.	0r	.
.	.	.	16g/	16e/	.	.	.	.	.	.	.
.	.	.	16f/	16d/	.	.	.	.	.	.	.
.	.	.	16g/JJ	16e/JJ	.	.	.	.	.	.	.
4FF/	.	8FFF/L	8a/L	8f/L	4F\	ut	.	.	.	.	.
.	.	8FFF/J	16g/L	16e/L	.	.	.	.	.	.	.
.	.	.	16f/JJ	16d/JJ	.	.	.	.	.	.	.
4GG/	.	4GGG/	8e/L	8c#X/L	8G\	ſi-	.	.	.	.	.
.	.	.	8f/	8d/	8G\	-ne	.	.	.	.	.
!LO:TX:t=P:problem:kreska pseudotaktowa	!	!LO:TX:t=P:problem:kreska pseudotaktowa	!	!	!	!	!	!	!	!	!
4AA/	4#r	4AAA/	8.e/	8d/	8A\	fi-	.	.	.	.	.
!	!	!	!	!LO:TX:t=P:problem:kreska pseudotaktowa	!LO:TX:t=P:problem:kreska pseudotaktowa	!	!	!	!	!	!
.	.	.	.	8c#X/J	8A\	-ne	.	.	.	.	.
!	!	!	!LO:TX:t=P:problem:kreska pseudotaktowa	!	!	!	!	!	!	!	!
.	.	.	16d/Jk	.	.	.	.	.	.	.	.
!LO:TX:b:t=voce.	!	!	!	!	!	!	!	!	!	!	!
2D/	.	2DD/	2d/	2d/	8.D/	va-	.	4r	.	.	.
.	.	.	.	.	16D/	-le-	.	.	.	.	.
.	.	.	.	.	8D/	-am	.	8r	.	.	.
.	.	.	.	.	8D/	lau-	.	8f/	ŭt	.	.
!	!	!	!LO:TX:t=P:problem:kreska pseudotaktowa	!	!	!	!	!LO:LB:g=original	!	!	!
4Eny\	6	2r	2r	2r	16E\LL	-da-	.	8g\	ſi-	.	.
.	.	.	.	.	16G\	.	.	.	.	.	.
.	.	.	.	.	16F#X\	.	.	8g\	-no	.	.
.	.	.	.	.	16E\JJ	.	.	.	.	.	.
!LO:TX:t=P:problem:kreska pseudotaktowa	!	!	!	!	!	!	!	!	!	!	!
4F#X\	6	.	.	.	16F#X\LL	.	.	8a\	fi-	.	.
.	.	.	.	.	16G\	.	.	.	.	.	.
!	!	!	!	!	!	!	!	!LO:TX:t=P:problem:kreska pseudotaktowa	!	!	!
.	.	.	.	.	16E\	.	.	8a\	-ne	.	.
!	!	!	!	!	!LO:TX:t=P:problem:kreska pseudotaktowa	!	!	!	!	!	!
.	.	.	.	.	16F#\JJ	.	.	.	.	.	.
!LO:LB:g=original	!	!	!LO:PB:g=original	!	!LO:LB:g=original	!	!	!	!	!	!
=55-	=55-	=55-	=55-	=55-	=55-	=55-	=55-	=55-	=55-	=55-	=55-
!	!	!	!LO:TX:a:t=2	!LO:TX:a:t=2	!	!	!	!	!	!	!
4G\	.	0r	0r	0r	8G\	.	.	8.d/	va-	4r	.
.	.	.	.	.	8G\	-re	.	.	.	.	.
.	.	.	.	.	.	.	.	16d/	-le-	.	.
4GG/	.	.	.	.	8r	.	.	4d/	-am	8r	.
.	.	.	.	.	8GG/	lau-	.	.	.	8b-\	ut
4AA/	.	.	.	.	16AA/LL	-da-	.	4r	.	8cc\	ſi-
.	.	.	.	.	16C/	.	.	.	.	.	.
!	!	!	!	!	!LO:N:acc=#	!	!	!	!	!	!
.	.	.	.	.	16BBn/	.	.	.	.	8cc\	-ne
.	.	.	.	.	16AA/JJ	.	.	.	.	.	.
!LO:TX:t=P:problem:kreska pseudotaktowa	!	!	!	!	!LO:N:acc=#	!	!	!	!	!	!
!LO:N:acc=#	!	!	!	!	!	!	!	!	!	!	!
4BBn/	.	.	.	.	16BBn/LL	.	.	8r	.	8dd\	fi-
.	.	.	.	.	16C/	.	.	.	.	.	.
!	!	!	!	!	!	!	!	!LO:TX:t=P:problem:kreska pseudotaktowa	!	!LO:TX:t=P:problem:kreska pseudotaktowa	!
.	.	.	.	.	16AA/	.	.	8d/	laŭ-	8dd\	-ne
.	.	.	.	.	16BB/JJ	.	.	.	.	.	.
4.C/	.	.	.	.	4C/	.	.	8e/	-da-	8.g/	va-
.	.	.	.	.	.	.	.	8e/	-re	.	.
.	.	.	.	.	.	.	.	.	.	16g/	-le-
.	.	.	.	.	8C/	-re	.	8r	.	8g/	-am
*	*	*	*	*	*	*	*	*	*ij	*	*
8E\	.	.	.	.	8E/	lau-	.	8e/	laŭ-	8g/	laŭ-
4Fny\	6	.	.	.	8Fny\	-da-	.	8d/	-da-	16a\LL	-da-
.	.	.	.	.	.	.	.	.	.	16cc\	.
!	!	!	!	!	!	!	!	!	!	!LO:N:acc=#	!
.	.	.	.	.	8F\	-re	.	8d/	-re	16bn\	.
*	*	*	*	*	*	*	*	*	*Xij	*	*
.	.	.	.	.	.	.	.	.	.	16a\JJ	.
!	!	!	!	!	!	!	!	!	!	!LO:N:acc=#	!
4G\	4#r	.	.	.	8G\	ſem-	.	8d/	ſem-	16bn\LL	.
.	.	.	.	.	.	.	.	.	.	16cc\	.
!	!	!	!	!	!LO:TX:t=P:problem:kreska pseudotaktowa	!	!	!LO:TX:t=P:problem:kreska pseudotaktowa	!	!	!
.	.	.	.	.	8GG/	-per	.	8d/	-per	16a\	.
!	!	!	!	!	!	!	!	!	!	!LO:TX:t=P:problem:kreska pseudotaktowa	!
.	.	.	.	.	.	.	.	.	.	16b\JJ	.
!	!	!LO:PB:g=original	!	!LO:PB:g=original	!	!	!	!	!	!	!
=56-	=56-	=56-	=56-	=56-	=56-	=56-	=56-	=56-	=56-	=56-	=56-
2C/	.	4r	2r	4r	2C/	te	.	2e/	te	4cc\	.
.	.	8r	.	8r	.	.	.	.	.	4cc\	-re
.	.	8CC/	.	8eeny\	.	.	.	.	.	.	.
!	!	!	!	!	!	!	!	!	!	!LO:TX:t=P:problem:kreska pseudotaktowa	!
4D/	.	16DD\LL	4r	8ff\L	2r	.	.	2r	.	2r	.
.	.	16FF\	.	.	.	.	.	.	.	.	.
.	.	16EEny\	.	8ff\	.	.	.	.	.	.	.
.	.	16DD\JJ	.	.	.	.	.	.	.	.	.
!LO:TX:t=P:problem:kreska pseudotaktowa	!	!	!	!	!	!	!	!	!	!	!
4E/	6	16EE\LL	8r	8gg\	.	.	.	.	.	.	.
.	.	16FF\	.	.	.	.	.	.	.	.	.
!	!	!	!LO:TX:t=P:problem:kreska pseudotaktowa	!LO:TX:t=P:problem:kreska pseudotaktowa	!	!	!	!	!	!	!
.	.	16DD\	8g/	8gg\J	.	.	.	.	.	.	.
!	!	!LO:TX:t=P:problem:kreska pseudotaktowa	!	!	!	!	!	!	!	!	!
.	.	16EE\JJ	.	.	.	.	.	.	.	.	.
!	!	!	!	!	!	!	!	!	!	!LO:LB:g=original	!
4.F\	.	4FF\	8a/L	8.cc\L	1r	.	.	0r	.	0r	.
.	.	.	8a/	.	.	.	.	.	.	.	.
.	.	.	.	16cc\Jk	.	.	.	.	.	.	.
.	.	8FF\L	8r	8cc\L	.	.	.	.	.	.	.
8B-\	.	8BB-\J	8f/J	8dd\J	.	.	.	.	.	.	.
4.B-\	4 2	8BB-\L	8e-X/L	8cc\L	.	.	.	.	.	.	.
.	.	8BB-\	8e-/	8cc\	.	.	.	.	.	.	.
.	.	8BB-\	8e-/	8cc\	.	.	.	.	.	.	.
!	!	!LO:TX:t=P:problem:kreska pseudotaktowa	!LO:TX:t=P:problem:kreska pseudotaktowa	!LO:TX:t=P:problem:kreska pseudotaktowa	!	!	!	!	!	!	!
8A\	6	8AA\J	8f/J	8cc\J	.	.	.	.	.	.	.
=57-	=57-	=57-	=57-	=57-	=57-	=57-	=57-	=57-	=57-	=57-	=57-
4B-\	.	4BB-\	4f/	4dd\	4r	.	.	.	.	.	.
4D/	.	8r	8r	8r	4D/	lau-	.	.	.	.	.
.	.	8DD/	8b-/	8dd\	.	.	.	.	.	.	.
4E-X\	6 5	4EE-X\	8b-/L	8cc\L	8E-X\	-da-	.	.	.	.	.
.	.	.	8b-/	8cc\	8E-\	-re	.	.	.	.	.
!LO:TX:t=P:problem:kreska pseudotaktowa	!	!LO:TX:t=P:problem:kreska pseudotaktowa	!	!	!	!	!	!	!	!	!
4F\	.	4FF\	8b-/	8cc\	8F\	ſem-	.	.	.	.	.
!	!	!	!LO:TX:t=P:problem:kreska pseudotaktowa	!LO:TX:t=P:problem:kreska pseudotaktowa	!LO:TX:t=P:problem:kreska pseudotaktowa	!	!	!	!	!	!
.	.	.	8a/J	8cc\J	8F\	-per	.	.	.	.	.
4BB-/	.	4BBB-/	4b-/	2dd\	8BB-y/	te	.	2r	.	2r	.
.	.	.	.	.	8BB-/	et	.	.	.	.	.
!	!	!	!	!	!LO:LB:g=original	!	!	!	!	!	!
8.AA/L	.	4r	4r	.	16AA/LL	be-	.	.	.	.	.
.	.	.	.	.	16BB-/	.	.	.	.	.	.
.	.	.	.	.	16AA/	.	.	.	.	.	.
16GG/Jk	.	.	.	.	16GG/JJ	.	.	.	.	.	.
!	!	!	!LO:TX:a:t=1	!	!	!	!	!	!	!	!
4FF/	.	2r	2r	2r	8FF/	.	.	8r	.	8r	.
.	.	.	.	.	8FF/	-ne	.	8a\	et	8cc\	et
!LO:TX:t=P:problem:kreska pseudotaktowa	!	!	!	!	!	!	!	!	!	!	!
4BB-/	6\	.	.	.	8.BB-/	di-	.	16g/LL	be-	16b-y\LL	be-
.	.	.	.	.	.	.	.	16a/	.	16cc\	.
.	.	.	.	.	.	.	.	16g/	.	16b-\	.
!	!	!	!	!	!LO:TX:t=P:problem:kreska pseudotaktowa	!	!	!LO:TX:t=P:problem:kreska pseudotaktowa	!	!LO:TX:t=P:problem:kreska pseudotaktowa	!
.	.	.	.	.	16BB-/	-ce-	.	16f/JJ	.	16a\JJ	.
!LO:LB:g=original	!	!	!	!	!	!	!	!	!	!	!
=58-	=58-	=58-	=58-	=58-	=58-	=58-	=58-	=58-	=58-	=58-	=58-
!	!	!	!LO:TX:a:t=1	!	!	!	!	!	!	!	!
4C/	.	1r	1r	1r	8C/	-re	.	4.e/	.	8g\L	.
.	.	.	.	.	8C/	et	.	.	.	16a\L	.
.	.	.	.	.	.	.	.	.	.	16b-\JJ	.
4AA/	.	.	.	.	4AA/	be-	.	.	.	8cc\L	.
.	.	.	.	.	.	.	.	16f/LL	.	16dd\L	.
.	.	.	.	.	.	.	.	16g/JJ	.	16ee\JJ	.
!	!	!	!	!	!	!	!	!LO:LB:g=original	!	!LO:TX:t=P:problem:mixed beam	!
4FF/	.	.	.	.	4FF/	-ne	.	8a\	.	16ff\LL	.
.	.	.	.	.	.	.	.	.	.	16f/JJ	.
.	.	.	.	.	.	.	.	8f/	-ne-	(16g/LL	-ne
.	.	.	.	.	.	.	.	.	.	16a/JJ)	.
4C/	4:3	.	.	.	8.C/	di-	.	8.f/	-di-	8.g/	di-
!	!	!	!	!	!LO:TX:t=P:problem:kreska pseudotaktowa	!	!	!LO:TX:t=P:problem:kreska pseudotaktowa	!	!LO:TX:t=P:problem:kreska pseudotaktowa	!
.	.	.	.	.	16C/	-ce-	.	16e/	-ce-	16g/	-ce-
!LO:TX:b:t=viol	!	!LO:LB:g=original	!	!	!	!	!	!	!	!	!
4FF/	.	8r	8r	8r	2FF/	-re	.	2f/	-re	2a\	-le
!	!	!	!	!LO:TX:t=P:problem:mixed beam	!	!	!	!	!	!	!
.	.	8FF\L	8ff\L	8a/L	.	.	.	.	.	.	.
4F\	6	8FF\	8ff\	8a/	.	.	.	.	.	.	.
.	.	8FF\J	8ff\J	8dd\J	.	.	.	.	.	.	.
!	!	!	!	!	!LO:TX:t=P:problem:kreska pseudotaktowa	!	!	!	!	!LO:TX:t=P:problem:kreska pseudotaktowa	!
4G\	.	8GG\L	16ee\LL	4.dd\	2r	.	.	2r	.	2r	.
.	.	.	16dd\	.	.	.	.	.	.	.	.
.	.	8DD\J	16ee\	.	.	.	.	.	.	.	.
.	.	.	16ff\JJ	.	.	.	.	.	.	.	.
!LO:TX:t=P:problem:kreska pseudotaktowa	!	!LO:TX:t=P:problem:mixed beam	!	!	!	!	!	!	!	!	!
4A\	4#r	8AA\L	8.ee\L	.	.	.	.	.	.	.	.
.	.	8AAA/J	.	8cc#X\	.	.	.	.	.	.	.
!	!	!	!LO:TX:t=P:problem:kreska pseudotaktowa	!	!	!	!	!	!	!	!
.	.	.	16dd\Jk	.	.	.	.	.	.	.	.
!	!	!	!	!LO:LB:g=original	!	!	!	!	!	!	!
=59-	=59-	=59-	=59-	=59-	=59-	=59-	=59-	=59-	=59-	=59-	=59-
!LO:TX:b:t=voce	!	!	!	!	!	!	!	!	!	!	!
2D/	.	2DD/	2dd\	2dd\	4r	.	.	4r	.	4r	.
.	.	.	.	.	8r	.	.	8r	.	8r	.
.	.	.	.	.	8D/	ut	.	8d/	ut	8b-\	ut
4Eny\	6	2r	2r	2r	8Eny\	ſi-	.	8g/	ſi-	8cc\	ſi-
.	.	.	.	.	8E\	-ne	.	8g/	-ne	8cc\	-ne
4F#X\	6	.	.	.	8F#X\	fi-	.	8a\	fi-	8dd\	fi-
!	!	!	!	!	!LO:TX:t=P:problem:kreska pseudotaktowa	!	!	!LO:TX:t=P:problem:kreska pseudotaktowa	!	!	!
.	.	.	.	.	8F#\	-ne	.	8a\	-ne	8dd\	-ne
!	!	!	!LO:LB:g=original	!	!	!	!	!	!	!	!
!	!	!	!LO:TX:a:t=1	!	!	!	!	!	!	!LO:LB:g=original	!
4G\	.	1r	1r	1r	8.G\	va-	.	8.b-\	va-	8.g/	va-
.	.	.	.	.	16G\	-le-	.	16b-\	-le-	16g/	-le-
4BB-/	6	.	.	.	8G\	-am	.	4b-\	-am	8g/	-am
*	*	*	*	*	*	*ij	*	*	*	*	*
.	.	.	.	.	8BB-/	ut	.	.	.	8d/	lau-
!	!	!	!	!	!LO:LB:g=original	!	!	!	!	!	!
4C/	.	.	.	.	8C/	ſi-	.	4.a\	va-	16e/LL	-da-
.	.	.	.	.	.	.	.	.	.	16g/	.
.	.	.	.	.	8C/	-ne	.	.	.	16f#X/	.
.	.	.	.	.	.	.	.	.	.	16e/JJ	.
!LO:TX:t=P:problem:kreska pseudotaktowa	!	!	!	!	!	!	!	!	!	!	!
4D/	#	.	.	.	8D/	fi-	.	.	.	16f#X/LL	.
.	.	.	.	.	.	.	.	.	.	16g/	.
!	!	!	!	!	!LO:TX:t=P:problem:kreska pseudotaktowa	!	!	!LO:TX:t=P:problem:kreska pseudotaktowa	!	!	!
.	.	.	.	.	8D/	-ne	.	8g/	-le-	16e/	.
!	!	!	!	!	!	!	!	!	!	!LO:TX:t=P:problem:kreska pseudotaktowa	!
.	.	.	.	.	.	.	.	.	.	16f#X/JJ	.
=60-	=60-	=60-	=60-	=60-	=60-	=60-	=60-	=60-	=60-	=60-	=60-
!LO:TX:b:t=Tutti&colon;	!	!	!	!	!	!	!	!	!	!	!
2GG/	.	4r	4r	4r	8.GG/	va-	.	2g/	-am	4g/	-re
.	.	.	.	.	16GG/	-le-	.	.	.	.	.
.	.	8r	8r	8r	8GG/	-am	.	.	.	4g/	.
*	*	*	*	*	*	*Xij	*	*	*	*	*
.	.	8GGG/	8gg\	8b-y\	8GG/	laŭ-	.	.	.	.	.
4AA/	.	8AAA/L	8gg\L	8ccny\L	16AA/LL	-da-	.	2r	.	4r	.
.	.	.	.	.	16C/	.	.	.	.	.	.
!	!	!	!	!	!LO:N:acc=#	!	!	!	!	!	!
.	.	8AAA/J	8ff\	8cc\	16BBn/	.	.	.	.	.	.
.	.	.	.	.	16AA/JJ	.	.	.	.	.	.
!LO:N:acc=#	!	!LO:N:acc=#	!	!	!LO:N:acc=#	!	!	!	!	!	!
4BBn/	.	8BBBn/L	8ff\	8dd\	16BBn/LL	.	.	.	.	8r	.
.	.	.	.	.	16C/	.	.	.	.	.	.
!	!	!LO:TX:t=P:problem:kreska pseudotaktowa	!LO:TX:t=P:problem:kreska pseudotaktowa	!LO:TX:t=P:problem:kreska pseudotaktowa	!	!	!	!	!	!LO:TX:t=P:problem:kreska pseudotaktowa	!
.	.	8BBB/J	8ff\J	8dd\J	16AA/	.	.	.	.	8d/	ut
!	!	!	!	!	!LO:TX:t=P:problem:kreska pseudotaktowa	!	!	!	!	!	!
.	.	.	.	.	16BB/JJ	.	.	.	.	.	.
4C/	.	8.CC/L	8ff\L	8.g/L	8C/	.	.	4r	.	8g/L	ſi-
.	.	.	8ee\	.	8C/	-re	.	.	.	8g/	-ne
.	.	16CC/Jk	.	16g/Jk	.	.	.	.	.	.	.
4E\	6	8EEny\L	8ee\	8g/L	8r	.	.	8r	.	8g/	fi-
.	.	8EE\J	8dd\J	8g/J	8E\	laŭ-	.	8cc\	ut	8g/J	-ne
4Fny\	6	8FF\L	4.dd\	16a/LL	8Fny\	-da-	.	8cc\	ſi-	8.a\	va-
.	.	.	.	16cc/	.	.	.	.	.	.	.
!	!	!	!	!LO:N:acc=#	!	!	!	!	!	!	!
.	.	8DD\J	.	16bn/	8F\	-re	.	8cc\	-ne	.	.
.	.	.	.	16a/JJ	.	.	.	.	.	16a\	-le-
!LO:TX:t=P:problem:kreska pseudotaktowa	!	!LO:TX:t=P:problem:mixed beam	!	!LO:N:acc=#	!	!	!	!LO:N:acc=#	!	!LO:N:acc=#	!
4G\	#	8GG\L	.	16bn/LL	8G\	ſem-	.	8bn\	ſi-	8bn\	-am
.	.	.	.	16cc/	.	.	.	.	.	.	.
!	!	!LO:TX:t=P:problem:kreska pseudotaktowa	!LO:TX:t=P:problem:kreska pseudotaktowa	!	!LO:TX:t=P:problem:kreska pseudotaktowa	!	!	!	!	!	!
.	.	8GGG/J	8dd\	16a/	8GG/	-per	.	8b\	-ne	8b\	lau-
!	!	!	!	!LO:TX:t=P:problem:kreska pseudotaktowa	!	!	!	!	!	!	!
!	!	!	!	!LO:N:acc=#	!	!	!	!	!	!	!
.	.	.	.	16bn/JJ	.	.	.	.	.	.	.
!	!	!LO:LB:g=original	!	!	!LO:LB:g=original	!	!	!LO:LB:g=original	!	!LO:LB:g=original	!
=61-	=61-	=61-	=61-	=61-	=61-	=61-	=61-	=61-	=61-	=61-	=61-
4C/	.	8CC/L	16ee\LL	8cc\L	8C/	te	.	8.g/	va-	8cc\	-da-
.	.	.	16gg\	.	.	.	.	.	.	.	.
.	.	8CC/J	16ff\	8cc\J	8C/	et	.	.	.	8cc\	-re
.	.	.	16ee\JJ	.	.	.	.	16g/	-le-	.	.
!	!	!	!	!	!	!	!	!	!	!LO:N:acc=#	!
8D/L	6	4r	8ff\L	8r	8D\	be-	.	8g/	-am	8.bn\	ſem-
8E/J	.	.	8gg\J	8ee\	8E\	-ne-	.	8g/	laŭ-	.	.
.	.	.	.	.	.	.	.	.	.	16a\	-per
4.F\	.	8r	8.cc\L	8cc\L	8.F\	-di-	.	4a\	-da-	4a\	te
!	!	!LO:TX:t=P:problem:mixed beam	!	!	!	!	!	!	!	!	!
.	.	8FF\L	.	8ff\	.	.	.	.	.	.	.
.	.	.	16cc\Jk	.	16F\	-ce-	.	.	.	.	.
.	.	8FF\	8cc\L	8ff\	8F\	-re	.	8a\	-re	8r	.
!	!	!LO:TX:t=P:problem:kreska pseudotaktowa	!LO:TX:t=P:problem:kreska pseudotaktowa	!LO:TX:t=P:problem:kreska pseudotaktowa	!LO:TX:t=P:problem:kreska pseudotaktowa	!	!	!LO:TX:t=P:problem:kreska pseudotaktowa	!	!LO:TX:t=P:problem:kreska pseudotaktowa	!
8AA/	6	8AAA/J	8cc\J	8ff\J	8AA/	et	.	8a\	et	8cc\	et
!LO:LB:g=original	!	!	!	!	!	!	!	!	!	!	!
2BB-y/	.	8.BBB-y/L	4b-/	8.dd\L	2BB-y/	be-	.	2f/	be-	2dd\	be-
.	.	16BBB-/Jk	.	16dd\Jk	.	.	.	.	.	.	.
.	.	8BBB-/L	8b-/L	8dd\L	.	.	.	.	.	.	.
.	.	8BBB-/J	8b-/J	8dd\J	.	.	.	.	.	.	.
!LO:N:acc=#	!	!LO:N:acc=#	!	!LO:LB:g=original	!LO:N:acc=#	!	!	!	!	!	!
2BBn/	6	4.BBBn/	4dd\	4gg\	2BBn/	-ne-	.	2d/	-ne-	2g/	-ne-
!	!	!	!LO:TX:t=P:problem:kreska pseudotaktowa	!	!	!	!	!	!	!	!
.	.	.	4dd\	4dd\	.	.	.	.	.	.	.
.	.	8BBB/	.	.	.	.	.	.	.	.	.
=62-	=62-	=62-	=62-	=62-	=62-	=62-	=62-	=62-	=62-	=62-	=62-
1C	.	1CC	8cc\L	2.gg\	2.C/	-di-	.	2.e/	-di-	2.g/	-di-
.	.	.	8dd\	.	.	.	.	.	.	.	.
.	.	.	8ee\	.	.	.	.	.	.	.	.
.	.	.	8ff\J	.	.	.	.	.	.	.	.
!	!	!	!LO:LB:g=original	!	!	!	!	!	!	!	!
.	.	.	4ff\	.	.	.	.	.	.	.	.
.	.	.	4ee\	4gg\	4C/	-ce-	.	4e/	-ce-	4g/	-ce-
!!LO:N:vis=00
0.FF;;	.	0.FFF;;	0.ff;;	0.ff;;	0.FF;;	-re	.	0.f;;	-re	0.a;;	-re.
=63||	=63||	=63||	=63||	=63||	=63||	=63||	=63||	=63||	=63||	=63||	=63||
*-	*-	*-	*-	*-	*-	*-	*-	*-	*-	*-	*-
!!!system-decoration: [(s1,s2,s3)][(s4,s5,s6)][(s7)]
!!!ENC: Andrzej Gręziak
!!!END: 2021-01-31
!!!ENC: Urszula Świątek
!!!END: 2022-02-20
!!!YEC: Copyright 2022 Narodowy Instytut Fryderyka Chopina (https://polishscores.org)
!!!YEM: License CC-BY-4.0 (https://creativecommons.org/licenses/by/4.0)
